;FLAVOR:UltiGCode
;TIME:2323
;MATERIAL:3795
;MATERIAL2:0
;NOZZLE_DIAMETER:0.4
;Generated with Cura_SteamEngine 2.7.0

;LAYER_COUNT:66
;LAYER:0
M107
G0 F4500 X80.429 Y92.757 Z0.27
;TYPE:SKIRT
G1 F1800 X81.029 Y92.237 E0.07503
G1 X81.677 Y91.78 E0.14996
G1 X82.369 Y91.391 E0.22498
G1 X83.459 Y90.946 E0.33624
G1 X83.88 Y90.81 E0.37805
G1 X84.647 Y90.605 E0.45307
G1 X85.43 Y90.477 E0.52805
G1 X86.297 Y90.429 E0.61011
G1 X111.406 Y90.417 E2.98291
G1 X112.199 Y90.457 E3.05794
G1 X112.983 Y90.576 E3.13288
G1 X113.46 Y90.688 E3.17918
G1 X113.92 Y90.812 E3.2242
G1 X114.674 Y91.057 E3.29912
G1 X115.169 Y91.275 E3.35024
G1 X135.222 Y91.275 E5.24524
G1 X136.014 Y91.315 E5.32018
G1 X136.799 Y91.434 E5.39521
G1 X137.567 Y91.632 E5.47016
G1 X138.312 Y91.907 E5.54521
G1 X139.025 Y92.254 E5.62014
G1 X139.7 Y92.672 E5.69517
G1 X140.329 Y93.155 E5.77011
G1 X140.79 Y93.582 E5.8295
G1 X140.893 Y93.685 E5.84326
G1 X141.426 Y94.273 E5.91826
G1 X141.896 Y94.912 E5.99322
G1 X142.299 Y95.596 E6.06824
G1 X142.632 Y96.316 E6.14321
G1 X142.89 Y97.066 E6.21816
G1 X143.072 Y97.839 E6.2932
G1 X143.175 Y98.625 E6.36811
G1 X143.2 Y99.253 E6.42751
G1 X143.2 Y102.997 E6.78132
G1 X143.16 Y103.789 E6.85626
G1 X143.041 Y104.574 E6.93129
G1 X142.843 Y105.342 E7.00623
G1 X142.568 Y106.087 E7.08128
G1 X142.221 Y106.8 E7.15621
G1 X141.803 Y107.475 E7.23124
G1 X141.32 Y108.104 E7.30619
G1 X140.893 Y108.565 E7.36557
G1 X140.79 Y108.668 E7.37933
G1 X140.202 Y109.201 E7.45433
G1 X139.563 Y109.671 E7.52929
G1 X138.879 Y110.074 E7.60431
G1 X138.159 Y110.407 E7.67928
G1 X137.409 Y110.665 E7.75423
G1 X136.636 Y110.847 E7.82927
G1 X135.85 Y110.95 E7.90419
G1 X135.222 Y110.975 E7.96358
G1 X120.506 Y110.975 E9.35424
G1 X120.494 Y123.652 E10.55222
G1 X120.453 Y124.445 E10.62726
G1 X120.333 Y125.229 E10.70221
G1 X120.015 Y126.349 E10.81223
G1 X119.845 Y126.814 E10.85902
G1 X119.536 Y127.545 E10.93402
G1 X119.154 Y128.24 E11.00896
G1 X118.704 Y128.894 E11.08398
G1 X118.191 Y129.499 E11.15894
G1 X117.838 Y129.853 E11.20618
G1 X117.303 Y130.355 E11.27551
G1 X116.697 Y130.868 E11.35054
G1 X116.043 Y131.317 E11.42551
G1 X115.348 Y131.699 E11.50045
G1 X114.617 Y132.009 E11.57549
G1 X114.217 Y132.143 E11.61535
G1 X113.756 Y132.284 E11.66091
G1 X112.987 Y132.477 E11.73583
G1 X112.202 Y132.592 E11.81081
G1 X111.456 Y132.628 E11.88139
G1 X86.454 Y132.637 E14.24408
G1 X85.661 Y132.597 E14.31911
G1 X84.877 Y132.478 E14.39405
G1 X84.154 Y132.294 E14.46455
G1 X83.495 Y132.093 E14.52966
G1 X82.748 Y131.824 E14.60468
G1 X82.033 Y131.481 E14.67962
G1 X81.356 Y131.067 E14.75462
G1 X80.538 Y130.427 E14.85276
G1 X80.193 Y130.118 E14.89653
G1 X79.629 Y129.56 E14.97151
G1 X79.125 Y128.947 E15.0465
G1 X78.684 Y128.287 E15.12151
G1 X78.2 Y127.333 E15.2226
G1 X77.93 Y126.698 E15.28781
G1 X77.657 Y125.954 E15.3627
G1 X77.46 Y125.185 E15.43772
G1 X77.341 Y124.4 E15.51275
G1 X77.302 Y123.622 E15.58636
G1 X77.288 Y99.591 E17.85729
G1 X77.328 Y98.798 E17.93233
G1 X77.447 Y98.014 E18.00726
G1 X77.588 Y97.434 E18.06367
G1 X77.767 Y96.804 E18.12556
G1 X78.022 Y96.052 E18.2006
G1 X78.351 Y95.33 E18.27558
G1 X78.752 Y94.645 E18.35059
G1 X79.219 Y94.004 E18.42553
G1 X79.891 Y93.273 E18.51937
G1 X80.429 Y92.757 E18.58981
G0 F4500 X80.671 Y93.009
G1 F1800 X81.258 Y92.502 E18.66311
G1 X81.894 Y92.058 E18.73641
G1 X82.572 Y91.681 E18.80972
G1 X83.567 Y91.279 E18.91113
G1 X83.988 Y91.143 E18.95294
G1 X84.737 Y90.943 E19.0262
G1 X85.503 Y90.821 E19.0995
G1 X86.297 Y90.779 E19.17464
G1 X111.406 Y90.767 E21.54744
G1 X112.181 Y90.807 E21.62077
G1 X112.947 Y90.926 E21.69403
G1 X113.369 Y91.026 E21.73501
G1 X113.829 Y91.15 E21.78003
G1 X114.566 Y91.391 E21.85331
G1 X115.094 Y91.625 E21.90789
G1 X135.222 Y91.625 E23.80998
G1 X135.997 Y91.665 E23.88332
G1 X136.763 Y91.784 E23.95657
G1 X137.513 Y91.982 E24.02988
G1 X138.239 Y92.256 E24.10321
G1 X138.932 Y92.603 E24.17645
G1 X139.586 Y93.02 E24.24974
G1 X140.194 Y93.502 E24.32306
G1 X140.543 Y93.829 E24.36826
G1 X140.646 Y93.932 E24.38202
G1 X141.165 Y94.508 E24.45529
G1 X141.623 Y95.134 E24.52859
G1 X142.013 Y95.805 E24.60193
G1 X142.333 Y96.511 E24.67518
G1 X142.578 Y97.247 E24.74849
G1 X142.746 Y98.005 E24.82186
G1 X142.835 Y98.775 E24.89511
G1 X142.85 Y99.253 E24.9403
G1 X142.85 Y102.997 E25.29411
G1 X142.81 Y103.772 E25.36744
G1 X142.691 Y104.538 E25.4407
G1 X142.493 Y105.288 E25.514
G1 X142.219 Y106.014 E25.58733
G1 X141.872 Y106.707 E25.66057
G1 X141.455 Y107.361 E25.73387
G1 X140.973 Y107.969 E25.80719
G1 X140.646 Y108.318 E25.85238
G1 X140.543 Y108.421 E25.86615
G1 X139.967 Y108.94 E25.93942
G1 X139.341 Y109.398 E26.01272
G1 X138.67 Y109.788 E26.08606
G1 X137.964 Y110.108 E26.15931
G1 X137.228 Y110.353 E26.23261
G1 X136.47 Y110.521 E26.30598
G1 X135.7 Y110.61 E26.37923
G1 X135.222 Y110.625 E26.42443
G1 X120.156 Y110.625 E27.84816
G1 X120.144 Y123.652 E29.07922
G1 X120.103 Y124.427 E29.15256
G1 X119.983 Y125.193 E29.22583
G1 X119.686 Y126.229 E29.32767
G1 X119.516 Y126.694 E29.37446
G1 X119.213 Y127.408 E29.44776
G1 X118.838 Y128.086 E29.52097
G1 X118.394 Y128.723 E29.59435
G1 X117.888 Y129.31 E29.66759
G1 X117.598 Y129.598 E29.70621
G1 X117.063 Y130.1 E29.77554
G1 X116.471 Y130.6 E29.84877
G1 X115.83 Y131.038 E29.92213
G1 X115.148 Y131.407 E29.99541
G1 X114.115 Y131.808 E30.10012
G1 X113.654 Y131.949 E30.14568
G1 X112.902 Y132.137 E30.21893
G1 X112.134 Y132.247 E30.29225
G1 X111.456 Y132.278 E30.35639
G1 X86.454 Y132.287 E32.71908
G1 X85.679 Y132.247 E32.79241
G1 X84.913 Y132.128 E32.86567
G1 X84.256 Y131.96 E32.92975
G1 X83.597 Y131.759 E32.99486
G1 X82.867 Y131.494 E33.06825
G1 X82.169 Y131.157 E33.1415
G1 X81.51 Y130.749 E33.21474
G1 X80.772 Y130.166 E33.30362
G1 X80.427 Y129.857 E33.34738
G1 X79.876 Y129.311 E33.42069
G1 X79.385 Y128.711 E33.49395
G1 X78.958 Y128.063 E33.56729
G1 X78.522 Y127.196 E33.659
G1 X78.252 Y126.561 E33.7242
G1 X77.986 Y125.833 E33.79745
G1 X77.796 Y125.081 E33.87075
G1 X77.684 Y124.313 E33.94409
G1 X77.652 Y123.621 E34.00955
G1 X77.638 Y99.59 E36.28048
G1 X77.678 Y98.816 E36.35372
G1 X77.797 Y98.049 E36.42707
G1 X77.925 Y97.529 E36.47768
G1 X78.104 Y96.899 E36.53957
G1 X78.354 Y96.165 E36.61285
G1 X78.678 Y95.461 E36.68608
G1 X79.073 Y94.793 E36.75942
G1 X79.535 Y94.17 E36.83271
G1 X80.133 Y93.525 E36.91583
G1 X80.671 Y93.009 E36.98628
G0 F4500 X80.913 Y93.262
G1 F1800 X81.487 Y92.767 E37.0579
G1 X82.109 Y92.336 E37.12942
G1 X82.774 Y91.972 E37.20106
G1 X83.674 Y91.612 E37.29266
G1 X84.095 Y91.476 E37.33447
G1 X84.827 Y91.282 E37.40603
G1 X85.576 Y91.166 E37.47765
G1 X86.298 Y91.129 E37.54597
G1 X111.407 Y91.117 E39.91877
G1 X112.163 Y91.157 E39.99031
G1 X113.277 Y91.364 E40.09739
G1 X113.737 Y91.488 E40.14241
G1 X114.457 Y91.724 E40.21401
G1 X115.016 Y91.975 E40.27192
G1 X135.222 Y91.975 E42.18139
G1 X135.978 Y92.015 E42.25293
G1 X136.726 Y92.134 E42.3245
G1 X137.457 Y92.332 E42.39607
G1 X138.164 Y92.606 E42.46773
G1 X138.837 Y92.952 E42.53924
G1 X139.47 Y93.368 E42.61082
G1 X140.295 Y94.077 E42.71361
G1 X140.398 Y94.18 E42.72738
G1 X140.905 Y94.743 E42.79898
G1 X141.349 Y95.356 E42.8705
G1 X141.727 Y96.013 E42.94213
G1 X142.033 Y96.705 E43.01364
G1 X142.264 Y97.427 E43.08527
G1 X142.418 Y98.168 E43.15679
G1 X142.5 Y99.253 E43.25962
G1 X142.5 Y102.997 E43.61342
G1 X142.46 Y103.753 E43.68497
G1 X142.341 Y104.501 E43.75654
G1 X142.143 Y105.232 E43.82811
G1 X141.869 Y105.939 E43.89976
G1 X141.523 Y106.612 E43.97128
G1 X141.107 Y107.245 E44.04286
G1 X140.398 Y108.07 E44.14565
G1 X140.295 Y108.173 E44.15942
G1 X139.732 Y108.68 E44.23101
G1 X139.119 Y109.124 E44.30254
G1 X138.462 Y109.502 E44.37417
G1 X137.77 Y109.808 E44.44567
G1 X137.048 Y110.039 E44.51731
G1 X136.307 Y110.193 E44.58883
G1 X135.222 Y110.275 E44.69165
G1 X119.806 Y110.275 E46.14847
G1 X119.794 Y123.652 E47.41259
G1 X119.753 Y124.408 E47.48414
G1 X119.633 Y125.156 E47.55573
G1 X119.358 Y126.109 E47.64946
G1 X119.188 Y126.574 E47.69625
G1 X118.891 Y127.27 E47.76776
G1 X118.522 Y127.932 E47.83938
G1 X118.085 Y128.55 E47.91091
G1 X117.359 Y129.342 E48.01244
G1 X116.824 Y129.844 E48.08177
G1 X116.245 Y130.333 E48.15339
G1 X115.618 Y130.757 E48.22491
G1 X114.949 Y131.113 E48.29653
G1 X114.013 Y131.473 E48.3913
G1 X113.552 Y131.614 E48.43685
G1 X112.817 Y131.797 E48.50843
G1 X112.067 Y131.902 E48.58
G1 X111.456 Y131.928 E48.63779
G1 X86.454 Y131.937 E51.00048
G1 X85.697 Y131.897 E51.07212
G1 X84.949 Y131.778 E51.14369
G1 X84.358 Y131.625 E51.20138
G1 X83.699 Y131.424 E51.26649
G1 X82.987 Y131.165 E51.33809
G1 X82.307 Y130.833 E51.4096
G1 X81.665 Y130.43 E51.48123
G1 X81.005 Y129.906 E51.56087
G1 X80.66 Y129.597 E51.60463
G1 X80.123 Y129.062 E51.67627
G1 X79.646 Y128.474 E51.74782
G1 X79.233 Y127.839 E51.8194
G1 X78.844 Y127.06 E51.90168
G1 X78.574 Y126.425 E51.96689
G1 X78.315 Y125.713 E52.03849
G1 X78.132 Y124.978 E52.11006
G1 X78.028 Y124.228 E52.18162
G1 X78.002 Y123.621 E52.23903
G1 X77.988 Y99.59 E54.50996
G1 X78.028 Y98.834 E54.5815
G1 X78.147 Y98.086 E54.65308
G1 X78.261 Y97.625 E54.69796
G1 X78.44 Y96.995 E54.75985
G1 X78.685 Y96.278 E54.83145
G1 X79.005 Y95.592 E54.90298
G1 X79.395 Y94.942 E54.97462
G1 X79.851 Y94.338 E55.04613
G1 X80.375 Y93.778 E55.11861
G1 X80.913 Y93.262 E55.18905
G0 F4500 X81.156 Y93.514
G1 F1800 X81.716 Y93.033 E55.25882
G1 X82.324 Y92.614 E55.32859
G1 X82.975 Y92.264 E55.39844
G1 X83.782 Y91.945 E55.48044
G1 X84.203 Y91.809 E55.52225
G1 X84.917 Y91.621 E55.59203
G1 X85.647 Y91.51 E55.6618
G1 X86.298 Y91.479 E55.72339
G1 X111.407 Y91.467 E58.09619
G1 X112.144 Y91.507 E58.16594
G1 X113.186 Y91.702 E58.26612
G1 X113.646 Y91.826 E58.31114
G1 X114.348 Y92.057 E58.38098
G1 X114.939 Y92.325 E58.4423
G1 X135.222 Y92.325 E60.35905
G1 X135.96 Y92.365 E60.42889
G1 X136.688 Y92.484 E60.4986
G1 X137.4 Y92.682 E60.56844
G1 X138.086 Y92.955 E60.63821
G1 X138.739 Y93.301 E60.70805
G1 X139.351 Y93.715 E60.77787
G1 X140.048 Y94.324 E60.86534
G1 X140.151 Y94.427 E60.8791
G1 X140.644 Y94.977 E60.9489
G1 X141.075 Y95.577 E61.01871
G1 X141.439 Y96.22 E61.08854
G1 X141.731 Y96.898 E61.1583
G1 X141.948 Y97.604 E61.22809
G1 X142.087 Y98.33 E61.29795
G1 X142.15 Y99.253 E61.38537
G1 X142.15 Y102.997 E61.73918
G1 X142.11 Y103.735 E61.80903
G1 X141.991 Y104.463 E61.87873
G1 X141.793 Y105.175 E61.94857
G1 X141.52 Y105.861 E62.01834
G1 X141.174 Y106.514 E62.08818
G1 X140.76 Y107.126 E62.158
G1 X140.151 Y107.823 E62.24547
G1 X140.048 Y107.926 E62.25924
G1 X139.498 Y108.419 E62.32903
G1 X138.898 Y108.85 E62.39885
G1 X138.255 Y109.214 E62.46867
G1 X137.577 Y109.506 E62.53843
G1 X136.871 Y109.723 E62.60823
G1 X136.145 Y109.862 E62.67808
G1 X135.222 Y109.925 E62.76551
G1 X119.457 Y109.925 E64.2553
G1 X119.444 Y123.651 E65.55241
G1 X119.403 Y124.389 E65.62226
G1 X119.283 Y125.118 E65.69207
G1 X119.029 Y125.988 E65.77772
G1 X118.859 Y126.453 E65.82451
G1 X118.568 Y127.132 E65.89432
G1 X118.206 Y127.776 E65.96413
G1 X117.776 Y128.377 E66.03397
G1 X117.119 Y129.087 E66.12538
G1 X116.584 Y129.589 E66.19471
G1 X116.019 Y130.065 E66.26452
G1 X115.406 Y130.476 E66.33427
G1 X114.751 Y130.819 E66.40414
G1 X113.91 Y131.139 E66.48917
G1 X113.449 Y131.28 E66.53473
G1 X112.732 Y131.457 E66.60452
G1 X112 Y131.556 E66.67432
G1 X111.455 Y131.578 E66.72587
G1 X86.453 Y131.587 E69.08856
G1 X85.716 Y131.547 E69.15831
G1 X84.987 Y131.428 E69.22811
G1 X84.46 Y131.29 E69.27959
G1 X83.801 Y131.089 E69.3447
G1 X83.107 Y130.836 E69.4145
G1 X82.445 Y130.509 E69.48428
G1 X81.822 Y130.112 E69.55409
G1 X81.239 Y129.645 E69.62468
G1 X80.894 Y129.336 E69.66845
G1 X80.371 Y128.814 E69.73827
G1 X79.908 Y128.239 E69.80804
G1 X79.509 Y127.617 E69.87787
G1 X79.166 Y126.923 E69.95103
G1 X78.896 Y126.288 E70.01623
G1 X78.644 Y125.593 E70.08609
G1 X78.469 Y124.876 E70.15584
G1 X78.372 Y124.143 E70.22571
G1 X78.352 Y123.621 E70.27508
G1 X78.338 Y99.59 E72.54601
G1 X78.378 Y98.852 E72.61585
G1 X78.497 Y98.123 E72.68565
G1 X78.598 Y97.721 E72.72482
G1 X78.777 Y97.091 E72.78671
G1 X79.017 Y96.392 E72.85655
G1 X79.331 Y95.724 E72.92631
G1 X79.716 Y95.093 E72.99616
G1 X80.166 Y94.507 E73.06598
G1 X80.618 Y94.03 E73.12808
G1 X81.156 Y93.514 E73.19853
G0 F4500 X81.398 Y93.767
G1 F1800 X81.944 Y93.299 E73.26648
G1 X82.539 Y92.894 E73.3345
G1 X83.175 Y92.557 E73.40252
G1 X83.89 Y92.279 E73.47501
G1 X84.311 Y92.143 E73.51682
G1 X85.006 Y91.96 E73.58474
G1 X85.718 Y91.855 E73.65275
G1 X86.298 Y91.829 E73.70761
G1 X111.407 Y91.817 E76.08042
G1 X112.125 Y91.857 E76.14837
G1 X113.095 Y92.04 E76.24165
G1 X113.555 Y92.164 E76.28668
G1 X114.238 Y92.39 E76.35466
G1 X114.859 Y92.675 E76.41923
G1 X135.222 Y92.675 E78.34353
G1 X135.94 Y92.715 E78.41149
G1 X136.65 Y92.834 E78.47952
G1 X137.342 Y93.032 E78.54754
G1 X138.007 Y93.305 E78.61547
G1 X138.639 Y93.65 E78.68351
G1 X139.228 Y94.063 E78.75149
G1 X139.801 Y94.571 E78.82386
G1 X139.904 Y94.674 E78.83762
G1 X140.383 Y95.211 E78.90563
G1 X140.8 Y95.797 E78.97359
G1 X141.15 Y96.426 E79.04162
G1 X141.428 Y97.089 E79.10955
G1 X141.63 Y97.78 E79.17759
G1 X141.755 Y98.488 E79.24553
G1 X141.8 Y99.253 E79.31794
G1 X141.8 Y102.997 E79.67175
G1 X141.76 Y103.715 E79.73971
G1 X141.641 Y104.425 E79.80774
G1 X141.443 Y105.117 E79.87576
G1 X141.17 Y105.782 E79.94369
G1 X140.825 Y106.414 E80.01173
G1 X140.412 Y107.003 E80.07971
G1 X139.904 Y107.576 E80.15208
G1 X139.801 Y107.679 E80.16584
G1 X139.264 Y108.158 E80.23384
G1 X138.678 Y108.575 E80.30181
G1 X138.049 Y108.925 E80.36983
G1 X137.386 Y109.203 E80.43777
G1 X136.695 Y109.405 E80.5058
G1 X135.987 Y109.53 E80.57375
G1 X135.222 Y109.575 E80.64616
G1 X119.107 Y109.575 E82.16903
G1 X119.094 Y123.651 E83.49921
G1 X119.053 Y124.369 E83.56717
G1 X118.933 Y125.079 E83.63522
G1 X118.7 Y125.868 E83.71296
G1 X118.53 Y126.333 E83.75975
G1 X118.246 Y126.994 E83.82774
G1 X117.89 Y127.62 E83.89579
G1 X117.467 Y128.202 E83.96378
G1 X116.88 Y128.832 E84.04516
G1 X116.345 Y129.334 E84.11448
G1 X115.793 Y129.796 E84.18251
G1 X115.194 Y130.195 E84.25052
G1 X114.555 Y130.524 E84.31844
G1 X113.808 Y130.804 E84.39383
G1 X113.347 Y130.945 E84.43939
G1 X112.648 Y131.117 E84.50741
G1 X111.935 Y131.21 E84.57536
G1 X111.455 Y131.228 E84.62075
G1 X86.453 Y131.237 E86.98344
G1 X85.735 Y131.197 E87.0514
G1 X85.025 Y131.078 E87.11943
G1 X84.562 Y130.955 E87.1647
G1 X83.903 Y130.754 E87.22981
G1 X83.228 Y130.507 E87.29773
G1 X82.584 Y130.185 E87.36577
G1 X81.98 Y129.795 E87.43372
G1 X81.472 Y129.384 E87.49547
G1 X81.127 Y129.075 E87.53923
G1 X80.619 Y128.566 E87.60719
G1 X80.17 Y128.004 E87.67517
G1 X79.786 Y127.395 E87.7432
G1 X79.488 Y126.786 E87.80727
G1 X79.218 Y126.151 E87.87248
G1 X78.974 Y125.474 E87.94049
G1 X78.806 Y124.774 E88.00851
G1 X78.717 Y124.06 E88.07651
G1 X78.702 Y123.621 E88.11802
G1 X78.688 Y99.59 E90.38895
G1 X78.728 Y98.871 E90.457
G1 X78.935 Y97.816 E90.5586
G1 X79.114 Y97.186 E90.62049
G1 X79.348 Y96.506 E90.68845
G1 X79.657 Y95.856 E90.75646
G1 X80.036 Y95.245 E90.82441
G1 X80.48 Y94.679 E90.89239
G1 X80.86 Y94.283 E90.94425
G1 X81.398 Y93.767 E91.0147
G0 F4500 X81.64 Y94.02
G1 F1800 X82.172 Y93.565 E91.08085
G1 X82.752 Y93.174 E91.14695
G1 X83.373 Y92.851 E91.2131
G1 X83.997 Y92.612 E91.27624
G1 X84.418 Y92.476 E91.31805
G1 X85.095 Y92.299 E91.38418
G1 X85.788 Y92.201 E91.45032
G1 X86.298 Y92.179 E91.49856
G1 X111.407 Y92.167 E93.87136
G1 X112.106 Y92.207 E93.93752
G1 X113.004 Y92.378 E94.02391
G1 X113.464 Y92.502 E94.06893
G1 X114.128 Y92.723 E94.13506
G1 X114.763 Y93.017 E94.20119
G1 X114.777 Y93.025 E94.20272
G1 X135.222 Y93.025 E96.13477
G1 X135.921 Y93.065 E96.20093
G1 X136.61 Y93.184 E96.26701
G1 X137.281 Y93.382 E96.33312
G1 X137.926 Y93.654 E96.39927
G1 X138.535 Y93.998 E96.46537
G1 X139.101 Y94.41 E96.53152
G1 X139.553 Y94.819 E96.58913
G1 X139.656 Y94.922 E96.60289
G1 X140.122 Y95.444 E96.66902
G1 X140.525 Y96.016 E96.73514
G1 X140.86 Y96.63 E96.80124
G1 X141.123 Y97.279 E96.86741
G1 X141.31 Y97.953 E96.93351
G1 X141.42 Y98.644 E96.99963
G1 X141.45 Y99.253 E97.05725
G1 X141.45 Y102.997 E97.41106
G1 X141.41 Y103.696 E97.47723
G1 X141.291 Y104.385 E97.5433
G1 X141.093 Y105.056 E97.60941
G1 X140.821 Y105.701 E97.67556
G1 X140.477 Y106.31 E97.74166
G1 X140.065 Y106.876 E97.80782
G1 X139.656 Y107.328 E97.86542
