;FLAVOR:UltiGCode
;TIME:1316
;MATERIAL:2088
;MATERIAL2:0
;NOZZLE_DIAMETER:0.4
;Generated with Cura_SteamEngine 2.7.0

;LAYER_COUNT:46
;LAYER:0
M107
G0 F4500 X92.569 Y92.633 Z0.27
;TYPE:SKIRT
G1 F1800 X93.426 Y91.955 E0.10327
G1 X94.054 Y91.526 E0.17514
G1 X94.731 Y91.112 E0.25013
G1 X95.446 Y90.769 E0.32507
G1 X96.192 Y90.499 E0.40004
G1 X96.952 Y90.307 E0.47412
G1 X97.547 Y90.188 E0.53146
G1 X98.332 Y90.072 E0.60645
G1 X99.1 Y90.035 E0.67911
G1 X124.238 Y90.063 E3.05465
G1 X125.03 Y90.104 E3.12959
G1 X125.814 Y90.224 E3.20454
G1 X126.679 Y90.454 E3.28913
G1 X127.125 Y90.6 E3.33347
G1 X127.866 Y90.884 E3.40847
G1 X128.574 Y91.242 E3.48344
G1 X129.08 Y91.556 E3.53971
G1 X129.486 Y91.83 E3.586
G1 X130.121 Y92.307 E3.66105
G1 X130.704 Y92.845 E3.73602
G1 X131.23 Y93.439 E3.811
G1 X131.499 Y93.794 E3.85309
G1 X131.915 Y94.379 E3.92092
G1 X132.341 Y95.048 E3.99587
G1 X132.699 Y95.757 E4.07093
G1 X132.983 Y96.498 E4.14592
G1 X133.148 Y97.08 E4.20309
G1 X133.289 Y97.659 E4.2594
G1 X133.438 Y98.438 E4.33435
G1 X133.513 Y99.533 E4.43807
G1 X133.478 Y123.789 E6.73027
G1 X133.437 Y124.582 E6.80531
G1 X133.316 Y125.366 E6.88027
G1 X133.016 Y126.436 E6.98529
G1 X132.855 Y126.885 E7.03036
G1 X132.55 Y127.618 E7.10539
G1 X132.172 Y128.316 E7.1804
G1 X131.906 Y128.725 E7.22651
G1 X131.668 Y129.067 E7.26588
G1 X131.182 Y129.695 E7.34092
G1 X130.636 Y130.27 E7.41585
G1 X130.271 Y130.597 E7.46216
G1 X129.907 Y130.903 E7.5071
G1 X129.275 Y131.382 E7.58204
G1 X128.598 Y131.796 E7.65703
G1 X127.54 Y132.273 E7.7667
G1 X126.855 Y132.523 E7.83561
G1 X126.097 Y132.757 E7.91058
G1 X125.319 Y132.914 E7.98558
G1 X124.139 Y133 E8.09739
G1 X98.637 Y132.948 E10.50733
G1 X97.845 Y132.906 E10.58228
G1 X97.06 Y132.785 E10.65734
G1 X96.292 Y132.586 E10.73231
G1 X95.548 Y132.31 E10.8073
G1 X95.157 Y132.129 E10.84802
G1 X94.606 Y131.856 E10.90613
G1 X93.913 Y131.469 E10.98114
G1 X93.264 Y131.013 E11.05609
G1 X92.663 Y130.495 E11.13107
G1 X92.03 Y129.815 E11.21887
G1 X91.503 Y129.177 E11.29707
G1 X91.03 Y128.541 E11.37197
G1 X90.622 Y127.86 E11.44699
G1 X90.285 Y127.141 E11.52203
G1 X90.145 Y126.77 E11.5595
G1 X90.026 Y126.431 E11.59345
G1 X89.801 Y125.67 E11.66844
G1 X89.654 Y124.891 E11.74336
G1 X89.581 Y123.837 E11.8432
G1 X89.537 Y99.572 E14.13624
G1 X89.576 Y98.78 E14.21118
G1 X89.658 Y98.182 E14.26822
G1 X89.74 Y97.72 E14.31256
G1 X89.918 Y96.946 E14.38761
G1 X90.173 Y96.195 E14.46256
G1 X90.502 Y95.473 E14.53754
G1 X90.7 Y95.113 E14.57637
G1 X91.074 Y94.475 E14.64625
G1 X91.51 Y93.812 E14.72124
G1 X92.009 Y93.196 E14.79616
G1 X92.569 Y92.633 E14.8712
G0 F4500 X92.843 Y92.857
G1 F1800 X93.623 Y92.244 E14.96495
G1 X94.251 Y91.815 E15.03682
G1 X94.914 Y91.411 E15.11019
G1 X95.614 Y91.078 E15.18344
G1 X96.345 Y90.818 E15.25676
G1 X97.02 Y90.65 E15.32249
G1 X97.615 Y90.531 E15.37983
G1 X98.383 Y90.418 E15.45319
G1 X99.099 Y90.385 E15.52092
G1 X124.237 Y90.413 E17.89647
G1 X125.012 Y90.454 E17.96981
G1 X125.778 Y90.574 E18.04308
G1 X126.57 Y90.786 E18.12056
G1 X127.016 Y90.932 E18.1649
G1 X127.74 Y91.211 E18.23823
G1 X128.431 Y91.563 E18.31151
G1 X128.885 Y91.847 E18.36211
G1 X129.291 Y92.121 E18.4084
G1 X129.91 Y92.587 E18.48162
G1 X130.479 Y93.115 E18.55497
G1 X131.214 Y93.997 E18.66347
G1 X131.63 Y94.582 E18.73131
G1 X132.046 Y95.237 E18.80463
G1 X132.393 Y95.93 E18.87787
G1 X132.666 Y96.656 E18.95117
G1 X132.808 Y97.163 E19.00092
G1 X132.949 Y97.742 E19.05724
G1 X133.094 Y98.504 E19.13054
G1 X133.163 Y99.533 E19.228
G1 X133.128 Y123.789 E21.52019
G1 X133.087 Y124.563 E21.59344
G1 X132.966 Y125.33 E21.66682
G1 X132.686 Y126.318 E21.76386
G1 X132.525 Y126.767 E21.80894
G1 X132.226 Y127.483 E21.88226
G1 X131.855 Y128.164 E21.95555
G1 X131.619 Y128.525 E21.9963
G1 X131.381 Y128.867 E22.03568
G1 X130.905 Y129.48 E22.10902
G1 X130.369 Y130.041 E22.18234
G1 X130.046 Y130.329 E22.22324
G1 X129.682 Y130.635 E22.26817
G1 X129.064 Y131.103 E22.34143
G1 X128.4 Y131.505 E22.41478
G1 X127.42 Y131.944 E22.51626
G1 X126.735 Y132.194 E22.58517
G1 X125.994 Y132.422 E22.65843
G1 X125.233 Y132.572 E22.73173
G1 X124.14 Y132.65 E22.83528
G1 X98.638 Y132.598 E25.24523
G1 X97.863 Y132.556 E25.31857
G1 X97.097 Y132.435 E25.39186
G1 X96.347 Y132.236 E25.46518
G1 X95.312 Y131.816 E25.57074
G1 X94.761 Y131.543 E25.62885
G1 X94.085 Y131.163 E25.70213
G1 X93.451 Y130.716 E25.77544
G1 X92.867 Y130.206 E25.84871
G1 X92.3 Y129.592 E25.92769
G1 X91.773 Y128.954 E26.00589
G1 X91.311 Y128.332 E26.07911
G1 X90.915 Y127.665 E26.15241
G1 X90.475 Y126.654 E26.25661
G1 X90.356 Y126.315 E26.29056
G1 X90.137 Y125.571 E26.36385
G1 X89.996 Y124.809 E26.43708
G1 X89.931 Y123.837 E26.52914
G1 X89.887 Y99.572 E28.82218
G1 X89.926 Y98.797 E28.89551
G1 X90.003 Y98.243 E28.94837
G1 X90.085 Y97.781 E28.99271
G1 X90.26 Y97.025 E29.06604
G1 X90.511 Y96.292 E29.13926
G1 X91.002 Y95.29 E29.24471
G1 X91.376 Y94.652 E29.31459
G1 X91.802 Y94.004 E29.38788
G1 X92.293 Y93.404 E29.46114
G1 X92.843 Y92.857 E29.53445
G0 F4500 X93.117 Y93.082
G1 F1800 X93.821 Y92.533 E29.61881
G1 X94.449 Y92.104 E29.69068
G1 X95.096 Y91.711 E29.76222
G1 X95.781 Y91.388 E29.83379
G1 X96.496 Y91.138 E29.90537
G1 X97.089 Y90.993 E29.96306
G1 X97.684 Y90.874 E30.0204
G1 X98.433 Y90.765 E30.09192
G1 X99.099 Y90.735 E30.15492
G1 X124.237 Y90.763 E32.53047
G1 X124.993 Y90.804 E32.60201
G1 X125.741 Y90.924 E32.6736
G1 X126.461 Y91.119 E32.74409
G1 X126.907 Y91.265 E32.78844
G1 X127.614 Y91.538 E32.86006
G1 X128.287 Y91.885 E32.93162
G1 X128.689 Y92.137 E32.97645
G1 X129.095 Y92.411 E33.02274
G1 X129.699 Y92.867 E33.09426
G1 X130.252 Y93.384 E33.1658
G1 X130.928 Y94.2 E33.26593
G1 X131.344 Y94.785 E33.33377
G1 X131.75 Y95.424 E33.40531
G1 X132.086 Y96.103 E33.4769
G1 X132.349 Y96.814 E33.54854
G1 X132.468 Y97.245 E33.59079
G1 X132.609 Y97.824 E33.64711
G1 X132.749 Y98.569 E33.71874
G1 X132.813 Y99.532 E33.80995
G1 X132.778 Y123.788 E36.10214
G1 X132.737 Y124.545 E36.17378
G1 X132.616 Y125.292 E36.2453
G1 X132.357 Y126.2 E36.33452
G1 X132.196 Y126.649 E36.3796
G1 X131.903 Y127.347 E36.45114
G1 X131.331 Y128.325 E36.5582
G1 X131.093 Y128.667 E36.59758
G1 X130.628 Y129.265 E36.66916
G1 X129.821 Y130.061 E36.77628
G1 X129.457 Y130.367 E36.82122
G1 X128.852 Y130.823 E36.89281
G1 X128.203 Y131.213 E36.96437
G1 X127.3 Y131.615 E37.05777
G1 X126.615 Y131.865 E37.12668
G1 X125.891 Y132.087 E37.19824
G1 X125.147 Y132.231 E37.26986
G1 X124.14 Y132.3 E37.36524
G1 X98.638 Y132.248 E39.77519
G1 X97.882 Y132.206 E39.84674
G1 X97.135 Y132.085 E39.91825
G1 X96.404 Y131.886 E39.98984
G1 X95.468 Y131.502 E40.08545
G1 X94.917 Y131.229 E40.14356
G1 X94.257 Y130.858 E40.21511
G1 X93.64 Y130.418 E40.28672
G1 X93.072 Y129.917 E40.35829
G1 X92.57 Y129.369 E40.42852
G1 X92.043 Y128.731 E40.50672
G1 X91.592 Y128.123 E40.57826
G1 X91.208 Y127.47 E40.64985
G1 X90.805 Y126.538 E40.7458
G1 X90.686 Y126.199 E40.77976
G1 X90.473 Y125.473 E40.85125
G1 X90.338 Y124.727 E40.9229
G1 X90.281 Y123.836 E41.00727
G1 X90.237 Y99.571 E43.30031
G1 X90.276 Y98.815 E43.37185
G1 X90.347 Y98.304 E43.4206
G1 X90.429 Y97.842 E43.46495
G1 X90.601 Y97.104 E43.53656
G1 X90.849 Y96.389 E43.60807
G1 X91.304 Y95.467 E43.70523
G1 X91.678 Y94.829 E43.77512
G1 X92.095 Y94.197 E43.84667
G1 X92.576 Y93.612 E43.91824
G1 X93.117 Y93.082 E43.98981
G0 F4500 X93.39 Y93.308
G1 F1800 X94.018 Y92.822 E44.06485
G1 X94.646 Y92.393 E44.13673
G1 X95.278 Y92.01 E44.20656
G1 X95.947 Y91.698 E44.27632
G1 X96.646 Y91.459 E44.34613
G1 X97.158 Y91.337 E44.39587
G1 X97.753 Y91.218 E44.45321
G1 X98.484 Y91.112 E44.52301
G1 X99.099 Y91.085 E44.58118
G1 X124.237 Y91.113 E46.95673
G1 X124.974 Y91.154 E47.02648
G1 X125.703 Y91.274 E47.0963
G1 X126.352 Y91.452 E47.15989
G1 X126.798 Y91.598 E47.20424
G1 X127.487 Y91.865 E47.27407
G1 X128.142 Y92.205 E47.34381
G1 X128.493 Y92.427 E47.38306
G1 X128.899 Y92.701 E47.42934
G1 X129.488 Y93.147 E47.49916
G1 X130.025 Y93.653 E47.56889
G1 X130.643 Y94.403 E47.66072
G1 X131.059 Y94.988 E47.72856
G1 X131.454 Y95.612 E47.79835
G1 X131.779 Y96.275 E47.86812
G1 X132.031 Y96.97 E47.93798
G1 X132.128 Y97.328 E47.97304
G1 X132.269 Y97.907 E48.02935
G1 X132.405 Y98.633 E48.09915
G1 X132.463 Y99.532 E48.18428
G1 X132.428 Y123.788 E50.47648
G1 X132.387 Y124.525 E50.54623
G1 X132.266 Y125.254 E50.61606
G1 X132.027 Y126.082 E50.6975
G1 X131.866 Y126.531 E50.74258
G1 X131.58 Y127.211 E50.81229
G1 X131.044 Y128.125 E50.91242
G1 X130.806 Y128.467 E50.9518
G1 X130.352 Y129.05 E51.02162
G1 X129.596 Y129.793 E51.12179
G1 X129.232 Y130.099 E51.16673
G1 X128.642 Y130.543 E51.23651
G1 X128.007 Y130.921 E51.30635
G1 X127.18 Y131.286 E51.39177
G1 X126.495 Y131.536 E51.46068
G1 X125.788 Y131.752 E51.53054
G1 X125.063 Y131.889 E51.60026
G1 X124.141 Y131.95 E51.68758
G1 X98.639 Y131.898 E54.09753
G1 X97.902 Y131.857 E54.16728
G1 X97.173 Y131.736 E54.23712
G1 X96.462 Y131.537 E54.30689
G1 X95.623 Y131.189 E54.39272
G1 X95.072 Y130.916 E54.45083
G1 X94.429 Y130.552 E54.52066
G1 X93.829 Y130.122 E54.59041
G1 X93.279 Y129.629 E54.66021
G1 X92.84 Y129.147 E54.72182
G1 X92.313 Y128.509 E54.80002
G1 X91.874 Y127.914 E54.8699
G1 X91.502 Y127.276 E54.93969
G1 X91.135 Y126.423 E55.02744
G1 X91.016 Y126.084 E55.06139
G1 X90.81 Y125.374 E55.13126
G1 X90.681 Y124.647 E55.20103
G1 X90.631 Y123.835 E55.27791
G1 X90.587 Y99.57 E57.57096
G1 X90.626 Y98.833 E57.6407
G1 X90.692 Y98.365 E57.68536
G1 X90.774 Y97.903 E57.7297
G1 X90.942 Y97.184 E57.79948
G1 X91.187 Y96.487 E57.8693
G1 X91.606 Y95.644 E57.95826
G1 X91.98 Y95.006 E58.02815
G1 X92.388 Y94.39 E58.09797
G1 X92.859 Y93.822 E58.1677
G1 X93.39 Y93.308 E58.23754
G0 F4500 X93.662 Y93.535
G1 F1800 X94.216 Y93.111 E58.30346
G1 X94.844 Y92.682 E58.37533
G1 X95.459 Y92.31 E58.44326
G1 X96.113 Y92.009 E58.51129
G1 X96.795 Y91.781 E58.57924
G1 X97.226 Y91.68 E58.62108
G1 X97.821 Y91.561 E58.67842
G1 X98.533 Y91.459 E58.74639
G1 X99.098 Y91.435 E58.79983
G1 X124.236 Y91.463 E61.17537
G1 X124.955 Y91.504 E61.24343
G1 X125.664 Y91.624 E61.31138
G1 X126.243 Y91.784 E61.36815
G1 X126.689 Y91.93 E61.4125
G1 X127.36 Y92.192 E61.48057
G1 X128.297 Y92.717 E61.58207
G1 X128.703 Y92.991 E61.62835
G1 X129.276 Y93.426 E61.69634
G1 X129.797 Y93.922 E61.76432
G1 X130.358 Y94.606 E61.84791
G1 X130.774 Y95.191 E61.91575
G1 X131.158 Y95.799 E61.9837
G1 X131.471 Y96.447 E62.05171
G1 X131.788 Y97.411 E62.14761
G1 X131.929 Y97.99 E62.20392
G1 X132.06 Y98.697 E62.27187
G1 X132.113 Y99.531 E62.35084
G1 X132.078 Y123.787 E64.64304
G1 X132.037 Y124.506 E64.71109
G1 X131.917 Y125.215 E64.77905
G1 X131.698 Y125.964 E64.85279
G1 X131.537 Y126.413 E64.89787
G1 X131.257 Y127.075 E64.96579
G1 X130.757 Y127.926 E65.05906
G1 X130.519 Y128.268 E65.09844
G1 X130.076 Y128.834 E65.16636
G1 X129.371 Y129.525 E65.25965
G1 X129.007 Y129.831 E65.30459
G1 X128.431 Y130.263 E65.37263
G1 X127.811 Y130.628 E65.44061
G1 X127.06 Y130.958 E65.51813
G1 X126.375 Y131.208 E65.58704
G1 X125.686 Y131.416 E65.65506
G1 X124.979 Y131.547 E65.723
G1 X124.142 Y131.6 E65.80226
G1 X98.64 Y131.548 E68.2122
G1 X97.922 Y131.507 E68.28016
G1 X97.212 Y131.386 E68.34823
G1 X96.521 Y131.187 E68.41618
G1 X95.778 Y130.875 E68.49233
G1 X95.227 Y130.602 E68.55044
G1 X94.601 Y130.247 E68.61845
G1 X94.019 Y129.825 E68.68639
G1 X93.486 Y129.341 E68.75442
G1 X93.11 Y128.924 E68.80748
G1 X92.583 Y128.286 E68.88568
G1 X92.156 Y127.706 E68.95374
G1 X91.796 Y127.083 E69.02174
G1 X91.465 Y126.307 E69.10146
G1 X91.346 Y125.968 E69.13542
G1 X91.146 Y125.277 E69.2034
G1 X91.024 Y124.568 E69.27138
G1 X90.981 Y123.835 E69.34077
G1 X90.937 Y99.57 E71.63381
G1 X90.976 Y98.851 E71.70186
G1 X91.037 Y98.426 E71.74243
G1 X91.119 Y97.964 E71.78678
G1 X91.284 Y97.264 E71.85474
G1 X91.525 Y96.586 E71.92274
G1 X91.908 Y95.821 E72.00358
G1 X92.282 Y95.183 E72.07347
G1 X92.68 Y94.584 E72.14143
G1 X93.142 Y94.032 E72.20945
G1 X93.662 Y93.535 E72.27743
G0 F4500 X93.933 Y93.764
G1 F1800 X94.413 Y93.4 E72.33436
G1 X95.041 Y92.971 E72.40623
G1 X95.64 Y92.61 E72.47232
G1 X96.277 Y92.32 E72.53846
G1 X96.943 Y92.104 E72.60462
G1 X97.295 Y92.023 E72.63876
G1 X97.89 Y91.904 E72.6961
G1 X98.583 Y91.806 E72.76224
G1 X99.098 Y91.785 E72.81095
G1 X124.236 Y91.813 E75.18649
G1 X124.934 Y91.854 E75.25256
G1 X125.624 Y91.974 E75.31875
G1 X126.135 Y92.117 E75.36889
G1 X126.581 Y92.263 E75.41324
G1 X127.232 Y92.518 E75.47931
G1 X128.101 Y93.007 E75.57354
G1 X128.507 Y93.281 E75.61983
G1 X129.064 Y93.705 E75.68598
G1 X129.569 Y94.19 E75.75215
G1 X130.073 Y94.808 E75.82751
G1 X130.489 Y95.393 E75.89534
G1 X130.861 Y95.986 E75.96149
G1 X131.163 Y96.617 E76.0276
G1 X131.448 Y97.494 E76.11474
G1 X131.589 Y98.073 E76.17106
G1 X131.716 Y98.761 E76.23717
G1 X131.763 Y99.531 E76.31007
G1 X131.728 Y123.787 E78.60227
G1 X131.687 Y124.485 E78.66834
G1 X131.567 Y125.175 E78.73453
G1 X131.369 Y125.845 E78.80055
G1 X131.208 Y126.294 E78.84562
G1 X130.934 Y126.938 E78.91176
G1 X130.469 Y127.726 E78.99823
G1 X130.231 Y128.068 E79.0376
G1 X129.8 Y128.618 E79.10363
G1 X129.145 Y129.257 E79.19011
G1 X128.781 Y129.563 E79.23504
G1 X128.221 Y129.982 E79.30114
G1 X127.616 Y130.335 E79.36733
G1 X126.94 Y130.629 E79.43699
G1 X126.255 Y130.879 E79.5059
G1 X125.585 Y131.081 E79.57203
G1 X124.896 Y131.205 E79.63819
G1 X124.143 Y131.25 E79.70947
G1 X98.641 Y131.198 E82.11942
G1 X97.942 Y131.157 E82.18559
G1 X97.253 Y131.036 E82.25169
G1 X96.582 Y130.837 E82.31783
G1 X95.934 Y130.561 E82.38439
G1 X95.383 Y130.288 E82.4425
G1 X94.775 Y129.942 E82.50861
G1 X94.21 Y129.529 E82.57475
G1 X93.696 Y129.055 E82.64082
G1 X93.38 Y128.701 E82.68566
G1 X92.853 Y128.063 E82.76386
G1 X92.439 Y127.499 E82.82998
G1 X92.092 Y126.891 E82.89613
G1 X91.796 Y126.191 E82.96795
G1 X91.677 Y125.852 E83.00191
G1 X91.483 Y125.179 E83.06809
G1 X91.367 Y124.489 E83.13421
G1 X91.331 Y123.834 E83.1962
G1 X91.287 Y99.569 E85.48925
G1 X91.326 Y98.87 E85.55541
G1 X91.381 Y98.488 E85.59188
G1 X91.463 Y98.026 E85.63622
G1 X91.625 Y97.345 E85.70237
G1 X91.863 Y96.687 E85.7685
G1 X92.21 Y95.998 E85.8414
G1 X92.584 Y95.36 E85.91128
G1 X92.972 Y94.778 E85.97738
G1 X93.423 Y94.244 E86.04344
G1 X93.933 Y93.764 E86.10962
G0 F4500 X94.61 Y93.689
G1 F1800 X95.238 Y93.26 E86.18149
G1 X95.821 Y92.911 E86.2457
G1 X96.441 Y92.632 E86.30995
G1 X97.363 Y92.366 E86.40063
G1 X97.958 Y92.247 E86.45798
G1 X98.631 Y92.153 E86.52219
G1 X99.097 Y92.135 E86.56626
G1 X124.235 Y92.163 E88.9418
G1 X124.914 Y92.204 E89.00609
G1 X125.582 Y92.324 E89.07022
G1 X126.026 Y92.45 E89.11384
G1 X126.472 Y92.596 E89.15818
G1 X127.104 Y92.845 E89.22238
G1 X127.906 Y93.297 E89.30937
G1 X128.312 Y93.571 E89.35566
G1 X128.851 Y93.984 E89.41983
G1 X129.339 Y94.457 E89.48405
G1 X129.787 Y95.011 E89.55138
G1 X130.203 Y95.596 E89.61922
G1 X130.564 Y96.172 E89.68346
G1 X130.854 Y96.786 E89.74763
G1 X131.108 Y97.577 E89.82613
G1 X131.249 Y98.156 E89.88245
G1 X131.371 Y98.824 E89.94662
G1 X131.413 Y99.53 E90.01345
G1 X131.378 Y123.786 E92.30565
G1 X131.337 Y124.465 E92.36993
G1 X131.217 Y125.133 E92.43407
G1 X131.039 Y125.727 E92.49267
G1 X130.878 Y126.176 E92.53774
G1 X130.612 Y126.801 E92.60193
G1 X130.182 Y127.526 E92.68159
G1 X129.944 Y127.868 E92.72096
G1 X129.524 Y128.402 E92.78516
G1 X128.92 Y128.99 E92.86482
G1 X128.556 Y129.296 E92.90976
G1 X128.011 Y129.701 E92.97393
G1 X127.422 Y130.04 E93.03815
G1 X126.82 Y130.3 E93.10012
G1 X126.135 Y130.55 E93.16902
G1 X125.484 Y130.745 E93.23324
G1 X124.815 Y130.862 E93.29742
G1 X124.143 Y130.9 E93.36103
G1 X98.641 Y130.848 E95.77097
G1 X97.963 Y130.807 E95.83516
G1 X97.294 Y130.686 E95.89941
G1 X96.645 Y130.488 E95.96353
G1 X96.089 Y130.248 E96.02076
G1 X95.538 Y129.975 E96.07887
G1 X94.948 Y129.638 E96.14308
G1 X94.402 Y129.234 E96.20726
G1 X93.907 Y128.769 E96.27144
G1 X93.65 Y128.478 E96.30813
G1 X93.123 Y127.84 E96.38633
G1 X92.721 Y127.291 E96.45063
G1 X92.387 Y126.7 E96.51478
G1 X92.126 Y126.075 E96.57879
G1 X92.007 Y125.736 E96.61274
G1 X91.82 Y125.083 E96.67693
G1 X91.711 Y124.412 E96.74117
G1 X91.681 Y123.833 E96.79596
G1 X91.637 Y99.568 E99.08901
G1 X91.676 Y98.89 E99.15318
G1 X91.726 Y98.549 E99.18575
G1 X91.808 Y98.087 E99.23009
G1 X91.966 Y97.426 E99.29432
G1 X92.2 Y96.788 E99.35854
G1 X92.512 Y96.175 E99.42354
