;START_OF_HEADER
;HEADER_VERSION:0.1
;FLAVOR:Griffin
;GENERATOR.NAME:Cura_SteamEngine
;GENERATOR.VERSION:2.7.0
;GENERATOR.BUILD_DATE:2017-08-30
;TARGET_MACHINE.NAME:Ultimaker 3
;EXTRUDER_TRAIN.0.INITIAL_TEMPERATURE:210
;EXTRUDER_TRAIN.0.MATERIAL.VOLUME_USED:2427
;EXTRUDER_TRAIN.0.MATERIAL.GUID:506c9f0d-e3aa-4bd4-b2d2-23e2425b1aa9
;EXTRUDER_TRAIN.0.NOZZLE.DIAMETER:0.4
;EXTRUDER_TRAIN.0.NOZZLE.NAME:AA 0.4
;BUILD_PLATE.INITIAL_TEMPERATURE:60
;PRINT.TIME:1278
;PRINT.SIZE.MIN.X:9
;PRINT.SIZE.MIN.Y:6
;PRINT.SIZE.MIN.Z:0.27
;PRINT.SIZE.MAX.X:137.442
;PRINT.SIZE.MAX.Y:127.938
;PRINT.SIZE.MAX.Z:7.07
;END_OF_HEADER
;Generated with Cura_SteamEngine 2.7.0

T0
G92 E0

M109 S210
G0 F15000 X9 Y6 Z2
G280
G1 F1500 E-6.5
;LAYER_COUNT:35
;LAYER:0
M107
M204 S625
M205 X6 Y6
G0 F4285.7 X97.941 Y89.813 Z0.27
M204 S500
M205 X5 Y5
;TYPE:SKIRT
G1 F1500 E0
G1 F1200 X98.452 Y89.28 E0.01094
G1 X99.018 Y88.806 E0.02187
G1 X99.693 Y88.359 E0.03387
G1 X100.021 Y88.169 E0.03948
G1 X100.679 Y87.834 E0.05042
G1 X101.608 Y87.501 E0.06504
G1 X102.074 Y87.371 E0.07221
G1 X102.795 Y87.211 E0.08315
G1 X103.529 Y87.131 E0.09408
G1 X103.904 Y87.12 E0.09964
G1 X128.987 Y87.107 E0.4712
G1 X129.725 Y87.147 E0.48215
G1 X130.725 Y87.331 E0.49721
G1 X131.433 Y87.517 E0.50806
G1 X132.136 Y87.743 E0.51899
G1 X132.811 Y88.044 E0.52994
G1 X133.449 Y88.416 E0.54088
G1 X133.778 Y88.646 E0.54683
G1 X134.222 Y88.977 E0.55503
G1 X134.79 Y89.45 E0.56598
G1 X135.303 Y89.982 E0.57693
G1 X135.555 Y90.29 E0.58283
G1 X135.794 Y90.601 E0.58864
G1 X136.211 Y91.21 E0.59957
G1 X136.678 Y92.125 E0.61479
G1 X136.858 Y92.555 E0.62169
G1 X137.106 Y93.25 E0.63262
G1 X137.31 Y94.165 E0.64651
G1 X137.365 Y94.527 E0.65193
G1 X137.442 Y95.554 E0.66719
G1 X137.436 Y119.59 E1.02324
G1 X137.396 Y120.327 E1.03418
G1 X137.276 Y121.056 E1.04512
G1 X137.113 Y121.663 E1.05443
G1 X136.895 Y122.346 E1.06505
G1 X136.632 Y123.037 E1.076
G1 X136.297 Y123.695 E1.08694
G1 X135.699 Y124.564 E1.10257
G1 X135.364 Y124.978 E1.11046
G1 X134.869 Y125.526 E1.1214
G1 X134.317 Y126.018 E1.13235
G1 X133.631 Y126.5 E1.14477
G1 X133.107 Y126.822 E1.15388
G1 X132.458 Y127.174 E1.16482
G1 X131.774 Y127.454 E1.17576
G1 X131.012 Y127.67 E1.1875
G1 X130.534 Y127.776 E1.19475
G1 X129.805 Y127.897 E1.2057
G1 X129.048 Y127.938 E1.21693
G1 X103.777 Y127.909 E1.59127
G1 X103.04 Y127.868 E1.60221
G1 X102.311 Y127.748 E1.61315
G1 X101.599 Y127.55 E1.6241
G1 X101.216 Y127.407 E1.63016
G1 X100.645 Y127.175 E1.63929
G1 X99.977 Y126.86 E1.65023
G1 X99.346 Y126.475 E1.66118
G1 X98.761 Y126.024 E1.67212
G1 X98.314 Y125.603 E1.68121
G1 X97.77 Y125.042 E1.69279
G1 X97.286 Y124.485 E1.70372
G1 X96.864 Y123.878 E1.71467
G1 X96.51 Y123.23 E1.72561
G1 X96.263 Y122.642 E1.73506
G1 X96.048 Y122.056 E1.7443
G1 X95.831 Y121.35 E1.75524
G1 X95.692 Y120.624 E1.76619
G1 X95.63 Y119.703 E1.77987
G1 X95.636 Y95.3 E2.14136
G1 X95.676 Y94.563 E2.15229
G1 X95.796 Y93.834 E2.16324
G1 X96.039 Y92.991 E2.17623
G1 X96.211 Y92.513 E2.18376
G1 X96.498 Y91.833 E2.19469
G1 X96.858 Y91.187 E2.20564
G1 X97.46 Y90.372 E2.22065
G1 X97.941 Y89.813 E2.23158
M204 S625
M205 X6 Y6
G0 F4285.7 X98.206 Y90.042
M204 S500
M205 X5 Y5
G1 F1200 X98.705 Y89.523 E2.24224
G1 X99.258 Y89.063 E2.2529
G1 X99.868 Y88.662 E2.26371
G1 X100.196 Y88.472 E2.26933
G1 X100.838 Y88.147 E2.27999
G1 X101.702 Y87.838 E2.29358
G1 X102.168 Y87.708 E2.30075
G1 X102.871 Y87.554 E2.31141
G1 X103.905 Y87.47 E2.32677
G1 X128.988 Y87.457 E2.69834
G1 X129.706 Y87.497 E2.70899
G1 X130.636 Y87.67 E2.723
G1 X131.344 Y87.856 E2.73385
G1 X132.029 Y88.077 E2.74451
G1 X132.685 Y88.372 E2.75516
G1 X133.569 Y88.927 E2.77062
G1 X134.013 Y89.258 E2.77883
G1 X134.565 Y89.719 E2.78948
G1 X135.277 Y90.504 E2.80518
G1 X135.516 Y90.815 E2.81099
G1 X135.922 Y91.408 E2.82164
G1 X136.355 Y92.26 E2.83579
G1 X136.535 Y92.69 E2.8427
G1 X136.775 Y93.368 E2.85335
G1 X136.964 Y94.217 E2.86624
G1 X137.019 Y94.579 E2.87166
G1 X137.092 Y95.554 E2.88615
G1 X137.086 Y119.59 E3.2422
G1 X137.046 Y120.308 E3.25285
G1 X136.926 Y121.017 E3.2635
G1 X136.779 Y121.557 E3.27179
G1 X136.561 Y122.24 E3.28241
G1 X136.305 Y122.912 E3.29307
G1 X135.975 Y123.552 E3.30373
G1 X135.427 Y124.344 E3.318
G1 X135.092 Y124.758 E3.32589
G1 X134.609 Y125.291 E3.33654
G1 X134.069 Y125.768 E3.34722
G1 X133.448 Y126.202 E3.35844
G1 X132.924 Y126.524 E3.36755
G1 X132.291 Y126.866 E3.37821
G1 X131.624 Y127.135 E3.38886
G1 X130.936 Y127.328 E3.39945
G1 X130.458 Y127.434 E3.4067
G1 X129.748 Y127.551 E3.41736
G1 X129.049 Y127.588 E3.42773
G1 X103.778 Y127.559 E3.80207
G1 X103.059 Y127.518 E3.81274
G1 X102.35 Y127.398 E3.82339
G1 X101.348 Y127.083 E3.83895
G1 X100.777 Y126.851 E3.84808
G1 X100.126 Y126.543 E3.85875
G1 X99.514 Y126.166 E3.8694
G1 X98.947 Y125.722 E3.88007
G1 X98.566 Y125.36 E3.88785
G1 X98.022 Y124.799 E3.89943
G1 X97.55 Y124.255 E3.9101
G1 X97.142 Y123.663 E3.92075
G1 X96.802 Y123.028 E3.93142
G1 X96.591 Y122.521 E3.93955
G1 X96.376 Y121.935 E3.9488
G1 X96.166 Y121.247 E3.95946
G1 X96.034 Y120.54 E3.97011
G1 X95.98 Y119.703 E3.98253
G1 X95.986 Y95.3 E4.34402
G1 X96.026 Y94.582 E4.35468
G1 X96.146 Y93.873 E4.36533
G1 X96.368 Y93.11 E4.3771
G1 X96.54 Y92.632 E4.38462
G1 X96.821 Y91.969 E4.39529
G1 X97.174 Y91.342 E4.40595
G1 X97.725 Y90.601 E4.41963
G1 X98.206 Y90.042 E4.43055
M204 S625
M205 X6 Y6
G0 F4285.7 X98.471 Y90.27
M204 S500
M205 X5 Y5
G1 F1200 X98.957 Y89.767 E4.44091
G1 X99.497 Y89.322 E4.45128
G1 X100.044 Y88.965 E4.46095
G1 X100.372 Y88.775 E4.46657
G1 X100.996 Y88.459 E4.47693
G1 X101.796 Y88.175 E4.48951
G1 X102.262 Y88.045 E4.49667
G1 X102.946 Y87.896 E4.50704
G1 X103.905 Y87.82 E4.52129
G1 X128.988 Y87.807 E4.89286
G1 X129.686 Y87.847 E4.90321
G1 X130.547 Y88.008 E4.91619
G1 X131.255 Y88.194 E4.92703
G1 X131.921 Y88.41 E4.9374
G1 X132.557 Y88.701 E4.94776
G1 X133.36 Y89.207 E4.96182
G1 X133.804 Y89.538 E4.97003
G1 X134.34 Y89.988 E4.98039
G1 X135 Y90.717 E4.99496
G1 X135.239 Y91.028 E5.00077
G1 X135.633 Y91.606 E5.01113
G1 X136.032 Y92.395 E5.02423
G1 X136.212 Y92.825 E5.03114
G1 X136.445 Y93.485 E5.0415
G1 X136.618 Y94.27 E5.05341
G1 X136.673 Y94.632 E5.05884
G1 X136.742 Y95.554 E5.07253
G1 X136.736 Y119.59 E5.42858
G1 X136.696 Y120.288 E5.43894
G1 X136.576 Y120.978 E5.44932
G1 X136.446 Y121.45 E5.45657
G1 X136.228 Y122.133 E5.46719
G1 X135.977 Y122.787 E5.47757
G1 X135.654 Y123.407 E5.48792
G1 X135.154 Y124.124 E5.50087
G1 X134.819 Y124.538 E5.50876
G1 X134.349 Y125.056 E5.51912
G1 X133.822 Y125.517 E5.52949
G1 X133.265 Y125.903 E5.53953
G1 X132.741 Y126.225 E5.54864
G1 X132.125 Y126.557 E5.55901
G1 X131.475 Y126.816 E5.56937
G1 X130.86 Y126.987 E5.57883
G1 X130.382 Y127.093 E5.58608
G1 X129.691 Y127.205 E5.59645
G1 X129.049 Y127.238 E5.60597
G1 X103.778 Y127.209 E5.98032
G1 X103.079 Y127.168 E5.99069
G1 X102.39 Y127.048 E6.00105
G1 X101.479 Y126.758 E6.01521
G1 X100.908 Y126.526 E6.02434
G1 X100.276 Y126.227 E6.0347
G1 X99.682 Y125.856 E6.04508
G1 X99.135 Y125.421 E6.05543
G1 X98.817 Y125.116 E6.06196
G1 X98.273 Y124.555 E6.07353
G1 X97.815 Y124.026 E6.0839
G1 X97.421 Y123.447 E6.09427
G1 X97.095 Y122.828 E6.10463
G1 X96.92 Y122.401 E6.11147
G1 X96.705 Y121.815 E6.12072
G1 X96.502 Y121.145 E6.13109
G1 X96.376 Y120.457 E6.14145
G1 X96.33 Y119.703 E6.15264
G1 X96.336 Y95.3 E6.51413
G1 X96.376 Y94.602 E6.52448
G1 X96.496 Y93.913 E6.53484
G1 X96.698 Y93.228 E6.54542
G1 X96.87 Y92.75 E6.55295
G1 X97.144 Y92.106 E6.56332
G1 X97.49 Y91.498 E6.57368
G1 X97.99 Y90.829 E6.58605
G1 X98.471 Y90.27 E6.59697
M204 S625
M205 X6 Y6
G0 F4285.7 X98.736 Y90.498
M204 S500
M205 X5 Y5
G1 F1200 X99.209 Y90.01 E6.60704
G1 X99.736 Y89.581 E6.61711
G1 X100.219 Y89.268 E6.62563
G1 X100.547 Y89.078 E6.63125
G1 X101.154 Y88.772 E6.64132
G1 X101.89 Y88.512 E6.65288
G1 X102.356 Y88.382 E6.66005
G1 X103.02 Y88.239 E6.67011
G1 X103.905 Y88.17 E6.68326
G1 X128.988 Y88.157 E7.05482
G1 X129.666 Y88.197 E7.06488
G1 X130.458 Y88.347 E7.07682
G1 X131.166 Y88.533 E7.08767
G1 X131.812 Y88.744 E7.09773
G1 X132.429 Y89.029 E7.1078
G1 X133.151 Y89.488 E7.12048
G1 X133.595 Y89.819 E7.12868
G1 X134.115 Y90.256 E7.13874
G1 X134.722 Y90.93 E7.15218
G1 X134.961 Y91.241 E7.15799
G1 X135.343 Y91.803 E7.16805
G1 X135.709 Y92.53 E7.18011
G1 X135.889 Y92.96 E7.18702
G1 X136.114 Y93.601 E7.19708
G1 X136.271 Y94.323 E7.20802
G1 X136.326 Y94.685 E7.21345
G1 X136.392 Y95.553 E7.22634
G1 X136.386 Y119.589 E7.5824
G1 X136.346 Y120.268 E7.59247
G1 X136.226 Y120.936 E7.60253
G1 X136.113 Y121.344 E7.6088
G1 X135.895 Y122.027 E7.61942
G1 X135.65 Y122.661 E7.62949
G1 X135.333 Y123.262 E7.63955
G1 X134.882 Y123.904 E7.65117
G1 X134.547 Y124.318 E7.65906
G1 X134.09 Y124.82 E7.66912
G1 X133.576 Y125.265 E7.67919
G1 X133.082 Y125.605 E7.68807
G1 X132.558 Y125.927 E7.69718
G1 X131.959 Y126.248 E7.70725
G1 X131.326 Y126.497 E7.71733
G1 X130.784 Y126.645 E7.72565
G1 X130.306 Y126.751 E7.7329
G1 X129.635 Y126.859 E7.74297
G1 X129.049 Y126.888 E7.75166
G1 X103.778 Y126.859 E8.12601
G1 X103.1 Y126.818 E8.13607
G1 X102.431 Y126.698 E8.14614
G1 X101.611 Y126.434 E8.1589
G1 X101.04 Y126.202 E8.16803
G1 X100.427 Y125.91 E8.17809
G1 X99.852 Y125.548 E8.18815
G1 X99.324 Y125.12 E8.19822
G1 X99.068 Y124.872 E8.2035
G1 X98.524 Y124.311 E8.21508
G1 X98.081 Y123.797 E8.22513
G1 X97.701 Y123.233 E8.2352
G1 X97.39 Y122.629 E8.24527
G1 X97.248 Y122.28 E8.25085
G1 X97.033 Y121.694 E8.26009
G1 X96.837 Y121.044 E8.27015
G1 X96.719 Y120.375 E8.28021
G1 X96.68 Y119.704 E8.29017
G1 X96.686 Y95.301 E8.65166
G1 X96.726 Y94.622 E8.66174
G1 X96.846 Y93.954 E8.67179
G1 X97.027 Y93.347 E8.68117
G1 X97.199 Y92.869 E8.6887
G1 X97.466 Y92.244 E8.69877
G1 X97.805 Y91.655 E8.70883
G1 X98.255 Y91.057 E8.71992
G1 X98.736 Y90.498 E8.73084
M204 S625
M205 X6 Y6
G0 F4285.7 X99.002 Y90.727
M204 S500
M205 X5 Y5
G1 F1200 X99.461 Y90.254 E8.74061
G1 X99.974 Y89.841 E8.75036
G1 X100.395 Y89.571 E8.75777
G1 X100.723 Y89.381 E8.76339
G1 X101.312 Y89.086 E8.77314
G1 X101.984 Y88.85 E8.78369
G1 X102.45 Y88.72 E8.79086
G1 X103.094 Y88.581 E8.80062
G1 X103.905 Y88.52 E8.81267
G1 X128.988 Y88.507 E9.18423
G1 X129.645 Y88.547 E9.19398
G1 X130.369 Y88.685 E9.2049
G1 X131.077 Y88.871 E9.21574
G1 X131.703 Y89.077 E9.2255
G1 X132.299 Y89.357 E9.23526
G1 X132.941 Y89.769 E9.24656
G1 X133.385 Y90.1 E9.25476
G1 X133.889 Y90.524 E9.26452
G1 X134.445 Y91.143 E9.27684
G1 X134.684 Y91.454 E9.28265
G1 X135.052 Y92 E9.29241
G1 X135.386 Y92.665 E9.30343
G1 X135.566 Y93.095 E9.31034
G1 X135.783 Y93.717 E9.3201
G1 X135.925 Y94.375 E9.33007
G1 X135.98 Y94.737 E9.33549
G1 X136.042 Y95.553 E9.34761
G1 X136.036 Y119.589 E9.70367
G1 X135.996 Y120.247 E9.71343
G1 X135.876 Y120.894 E9.72318
G1 X135.779 Y121.238 E9.72847
G1 X135.561 Y121.921 E9.73909
G1 X135.323 Y122.535 E9.74885
G1 X135.013 Y123.115 E9.75859
G1 X134.61 Y123.684 E9.76892
G1 X134.275 Y124.098 E9.77681
G1 X133.831 Y124.583 E9.78655
G1 X133.331 Y125.012 E9.79631
G1 X132.898 Y125.307 E9.80407
G1 X132.374 Y125.629 E9.81318
G1 X131.793 Y125.939 E9.82294
G1 X131.179 Y126.177 E9.83269
G1 X130.709 Y126.303 E9.8399
G1 X130.231 Y126.409 E9.84715
G1 X129.58 Y126.513 E9.85692
G1 X129.05 Y126.538 E9.86478
G1 X103.779 Y126.509 E10.23912
G1 X103.122 Y126.468 E10.24888
G1 X102.474 Y126.348 E10.25864
G1 X101.743 Y126.11 E10.27003
G1 X101.172 Y125.878 E10.27916
G1 X100.578 Y125.594 E10.28891
G1 X100.023 Y125.239 E10.29867
G1 X99.319 Y124.629 E10.31247
G1 X98.775 Y124.068 E10.32404
G1 X98.347 Y123.568 E10.33379
G1 X97.981 Y123.02 E10.34355
G1 X97.577 Y122.16 E10.35763
G1 X97.362 Y121.574 E10.36688
G1 X97.173 Y120.943 E10.37663
G1 X97.062 Y120.294 E10.38639
G1 X97.03 Y119.704 E10.39514
G1 X97.036 Y95.301 E10.75663
G1 X97.076 Y94.643 E10.76639
G1 X97.196 Y93.996 E10.77614
G1 X97.356 Y93.465 E10.78436
G1 X97.528 Y92.987 E10.79188
G1 X97.789 Y92.382 E10.80164
G1 X98.12 Y91.813 E10.81139
G1 X98.521 Y91.286 E10.8212
G1 X99.002 Y90.727 E10.83213
M204 S625
M205 X6 Y6
G0 F4285.7 X99.267 Y90.955
M204 S500
M205 X5 Y5
G1 F1200 X99.712 Y90.499 E10.84157
G1 X100.21 Y90.103 E10.85099
G1 X100.57 Y89.874 E10.85731
G1 X100.898 Y89.684 E10.86293
G1 X101.468 Y89.4 E10.87236
G1 X102.078 Y89.187 E10.88193
G1 X102.544 Y89.057 E10.8891
G1 X103.167 Y88.924 E10.89853
G1 X103.905 Y88.87 E10.9095
G1 X128.988 Y88.857 E11.28106
G1 X129.624 Y88.897 E11.2905
G1 X130.281 Y89.024 E11.30041
G1 X130.989 Y89.21 E11.31125
G1 X131.593 Y89.41 E11.32068
G1 X132.168 Y89.684 E11.33011
G1 X132.732 Y90.049 E11.34007
G1 X133.176 Y90.38 E11.34827
G1 X133.662 Y90.792 E11.35771
G1 X134.167 Y91.357 E11.36893
G1 X134.406 Y91.668 E11.37474
G1 X134.762 Y92.196 E11.38418
G1 X135.063 Y92.8 E11.39417
G1 X135.243 Y93.23 E11.40108
G1 X135.452 Y93.832 E11.41052
G1 X135.579 Y94.428 E11.41954
G1 X135.634 Y94.79 E11.42497
G1 X135.692 Y95.553 E11.4363
G1 X135.686 Y119.589 E11.79236
G1 X135.646 Y120.225 E11.8018
G1 X135.446 Y121.131 E11.81554
G1 X135.228 Y121.814 E11.82616
G1 X134.996 Y122.408 E11.83561
G1 X134.693 Y122.967 E11.84503
G1 X134.338 Y123.463 E11.85406
G1 X134.003 Y123.877 E11.86195
G1 X133.572 Y124.346 E11.87139
G1 X133.086 Y124.758 E11.88082
G1 X132.715 Y125.009 E11.88746
G1 X132.191 Y125.331 E11.89657
G1 X131.629 Y125.63 E11.906
G1 X131.033 Y125.856 E11.91544
G1 X130.633 Y125.962 E11.92157
G1 X130.155 Y126.068 E11.92882
G1 X129.526 Y126.166 E11.93825
G1 X129.05 Y126.188 E11.94531
G1 X103.779 Y126.159 E12.31966
G1 X103.144 Y126.118 E12.32909
G1 X102.518 Y125.998 E12.33853
G1 X101.875 Y125.786 E12.34856
G1 X101.304 Y125.554 E12.35769
G1 X100.73 Y125.277 E12.36713
G1 X100.195 Y124.931 E12.37657
G1 X99.571 Y124.385 E12.38885
G1 X99.027 Y123.824 E12.40043
G1 X98.613 Y123.34 E12.40986
G1 X98.263 Y122.808 E12.41929
G1 X97.906 Y122.039 E12.43185
G1 X97.691 Y121.453 E12.4411
G1 X97.509 Y120.843 E12.45053
G1 X97.406 Y120.214 E12.45997
G1 X97.38 Y119.704 E12.46754
G1 X97.386 Y95.301 E12.82902
G1 X97.426 Y94.665 E12.83846
G1 X97.546 Y94.04 E12.84789
G1 X97.686 Y93.584 E12.85496
G1 X97.858 Y93.106 E12.86248
G1 X98.111 Y92.521 E12.87192
G1 X98.435 Y91.973 E12.88136
G1 X98.786 Y91.514 E12.88991
G1 X99.267 Y90.955 E12.90084
M204 S625
M205 X6 Y6
G0 F4285.7 X99.532 Y91.183
M204 S500
M205 X5 Y5
G1 F1200 X99.963 Y90.744 E12.90995
G1 X100.446 Y90.365 E12.91905
G1 X100.746 Y90.176 E12.9243
G1 X101.074 Y89.986 E12.92991
G1 X101.624 Y89.714 E12.939
G1 X102.172 Y89.524 E12.94759
G1 X102.638 Y89.394 E12.95476
G1 X103.24 Y89.267 E12.96388
G1 X103.906 Y89.22 E12.97377
G1 X128.989 Y89.207 E13.34533
G1 X129.602 Y89.247 E13.35443
G1 X130.192 Y89.362 E13.36333
G1 X130.9 Y89.548 E13.37418
G1 X131.482 Y89.743 E13.38327
G1 X132.035 Y90.011 E13.39237
G1 X132.523 Y90.33 E13.40101
G1 X132.967 Y90.661 E13.40921
G1 X133.435 Y91.059 E13.41831
G1 X133.889 Y91.57 E13.42844
G1 X134.128 Y91.881 E13.43425
G1 X134.47 Y92.391 E13.44334
G1 X134.741 Y92.935 E13.45235
G1 X134.921 Y93.365 E13.45925
G1 X135.12 Y93.947 E13.46836
G1 X135.233 Y94.48 E13.47643
G1 X135.288 Y94.842 E13.48186
G1 X135.342 Y95.553 E13.49242
G1 X135.336 Y119.589 E13.84847
G1 X135.296 Y120.202 E13.85757
G1 X135.112 Y121.025 E13.87007
G1 X134.894 Y121.708 E13.88069
G1 X134.67 Y122.28 E13.88979
G1 X134.373 Y122.818 E13.89889
G1 X134.066 Y123.243 E13.90666
G1 X133.731 Y123.657 E13.91455
G1 X133.314 Y124.109 E13.92365
G1 X132.842 Y124.502 E13.93275
G1 X132.532 Y124.711 E13.93829
G1 X132.008 Y125.033 E13.9474
G1 X131.464 Y125.32 E13.95651
G1 X130.888 Y125.534 E13.96562
G1 X130.557 Y125.62 E13.97068
G1 X130.079 Y125.726 E13.97793
G1 X129.472 Y125.82 E13.98703
G1 X129.051 Y125.838 E13.99328
G1 X103.78 Y125.809 E14.36762
G1 X103.166 Y125.768 E14.37674
G1 X102.564 Y125.648 E14.38583
G1 X102.006 Y125.461 E14.39455
G1 X101.435 Y125.229 E14.40368
G1 X100.882 Y124.962 E14.41278
G1 X100.369 Y124.624 E14.42188
G1 X99.822 Y124.141 E14.43269
G1 X99.278 Y123.58 E14.44426
G1 X98.88 Y123.112 E14.45336
G1 X98.546 Y122.597 E14.46245
G1 X98.234 Y121.918 E14.47352
G1 X98.019 Y121.332 E14.48277
G1 X97.845 Y120.743 E14.49187
G1 X97.75 Y120.136 E14.50097
G1 X97.73 Y119.704 E14.50738
G1 X97.736 Y95.301 E14.86886
G1 X97.776 Y94.688 E14.87796
G1 X97.895 Y94.085 E14.88707
G1 X98.015 Y93.702 E14.89301
G1 X98.187 Y93.224 E14.90054
G1 X98.432 Y92.661 E14.90964
