;START_OF_HEADER
;HEADER_VERSION:0.1
;FLAVOR:Griffin
;GENERATOR.NAME:Cura_SteamEngine
;GENERATOR.VERSION:2.7.0
;GENERATOR.BUILD_DATE:2017-08-30
;TARGET_MACHINE.NAME:Ultimaker 3
;EXTRUDER_TRAIN.0.INITIAL_TEMPERATURE:210
;EXTRUDER_TRAIN.0.MATERIAL.VOLUME_USED:4390
;EXTRUDER_TRAIN.0.MATERIAL.GUID:506c9f0d-e3aa-4bd4-b2d2-23e2425b1aa9
;EXTRUDER_TRAIN.0.NOZZLE.DIAMETER:0.4
;EXTRUDER_TRAIN.0.NOZZLE.NAME:AA 0.4
;BUILD_PLATE.INITIAL_TEMPERATURE:60
;PRINT.TIME:2219
;PRINT.SIZE.MIN.X:9
;PRINT.SIZE.MIN.Y:6
;PRINT.SIZE.MIN.Z:0.27
;PRINT.SIZE.MAX.X:147.078
;PRINT.SIZE.MAX.Y:127.556
;PRINT.SIZE.MAX.Z:10.07
;END_OF_HEADER
;Generated with Cura_SteamEngine 2.7.0

T0
G92 E0

M109 S210
G0 F15000 X9 Y6 Z2
G280
G1 F1500 E-6.5
;LAYER_COUNT:50
;LAYER:0
M107
M204 S625
M205 X6 Y6
G0 F4285.7 X85.835 Y89.842 Z0.27
M204 S500
M205 X5 Y5
;TYPE:SKIRT
G1 F1500 E0
G1 F1200 X86.332 Y89.394 E0.00991
G1 X86.907 Y88.929 E0.02087
G1 X87.528 Y88.53 E0.0318
G1 X88.189 Y88.2 E0.04274
G1 X89.236 Y87.844 E0.05913
G1 X89.812 Y87.699 E0.06792
G1 X90.537 Y87.558 E0.07887
G1 X91.48 Y87.493 E0.09287
G1 X116.455 Y87.502 E0.46283
G1 X117.193 Y87.542 E0.47378
G1 X117.922 Y87.662 E0.48472
G1 X118.634 Y87.86 E0.49567
G1 X119.041 Y88.012 E0.50211
G1 X119.695 Y88.28 E0.51258
G1 X119.73 Y88.296 E0.51315
G1 X140.254 Y88.3 E0.81717
G1 X140.992 Y88.34 E0.82812
G1 X141.721 Y88.46 E0.83907
G1 X142.432 Y88.657 E0.85
G1 X143.119 Y88.931 E0.86095
G1 X143.771 Y89.277 E0.87189
G1 X144.383 Y89.691 E0.88283
G1 X144.946 Y90.169 E0.89377
G1 X145.454 Y90.705 E0.90471
G1 X145.901 Y91.293 E0.91565
G1 X146.282 Y91.926 E0.9266
G1 X146.592 Y92.596 E0.93753
G1 X146.828 Y93.296 E0.94848
G1 X146.988 Y94.018 E0.95943
G1 X147.068 Y94.752 E0.97037
G1 X147.078 Y95.125 E0.97589
G1 X147.078 Y99.125 E1.03515
G1 X147.038 Y99.863 E1.0461
G1 X146.919 Y100.591 E1.05702
G1 X146.721 Y101.303 E1.06797
G1 X146.448 Y101.989 E1.07891
G1 X146.102 Y102.642 E1.08985
G1 X145.688 Y103.254 E1.1008
G1 X145.21 Y103.817 E1.11174
G1 X144.674 Y104.325 E1.12268
G1 X144.086 Y104.772 E1.13362
G1 X143.453 Y105.153 E1.14457
G1 X142.783 Y105.464 E1.15551
G1 X142.083 Y105.7 E1.16645
G1 X141.362 Y105.859 E1.17739
G1 X140.627 Y105.94 E1.18834
G1 X140.253 Y105.95 E1.19388
G1 X124.426 Y105.95 E1.42833
G1 X124.413 Y119.662 E1.63145
G1 X124.372 Y120.399 E1.64239
G1 X124.252 Y121.128 E1.65333
G1 X124.005 Y121.98 E1.66647
G1 X123.855 Y122.394 E1.673
G1 X123.566 Y123.074 E1.68394
G1 X123.205 Y123.718 E1.69488
G1 X122.879 Y124.189 E1.70336
G1 X122.67 Y124.465 E1.70849
G1 X122.193 Y125.029 E1.71943
G1 X121.658 Y125.538 E1.73037
G1 X121.07 Y125.986 E1.74132
G1 X120.707 Y126.217 E1.7477
G1 X120.138 Y126.554 E1.75749
G1 X119.483 Y126.896 E1.76844
G1 X118.795 Y127.164 E1.77937
G1 X118.082 Y127.357 E1.79032
G1 X117.352 Y127.472 E1.80126
G1 X116.673 Y127.507 E1.81134
G1 X91.445 Y127.556 E2.18505
G1 X90.708 Y127.517 E2.19598
G1 X89.978 Y127.399 E2.20693
G1 X89.274 Y127.206 E2.21775
G1 X88.617 Y126.987 E2.22801
G1 X87.93 Y126.716 E2.23895
G1 X87.276 Y126.372 E2.24989
G1 X86.663 Y125.959 E2.26084
G1 X86.099 Y125.483 E2.27177
G1 X85.645 Y125.014 E2.28144
G1 X85.193 Y124.499 E2.29159
G1 X84.737 Y123.918 E2.30253
G1 X84.346 Y123.292 E2.31347
G1 X84.025 Y122.626 E2.32442
G1 X83.754 Y121.85 E2.3366
G1 X83.631 Y121.414 E2.34331
G1 X83.47 Y120.693 E2.35425
G1 X83.387 Y119.959 E2.36519
G1 X83.375 Y119.562 E2.37108
G1 X83.371 Y95.535 E2.72699
G1 X83.411 Y94.798 E2.73793
G1 X83.53 Y94.069 E2.74887
G1 X83.725 Y93.363 E2.75972
G1 X83.934 Y92.74 E2.76945
G1 X84.207 Y92.054 E2.78039
G1 X84.552 Y91.401 E2.79133
G1 X84.966 Y90.789 E2.80228
G1 X85.443 Y90.225 E2.81322
G1 X85.835 Y89.842 E2.82134
M204 S625
M205 X6 Y6
G0 F4285.7 X86.07 Y90.102
M204 S500
M205 X5 Y5
G1 F1200 X86.567 Y89.654 E2.83125
G1 X87.127 Y89.202 E2.84191
G1 X87.734 Y88.816 E2.85256
G1 X88.38 Y88.499 E2.86322
G1 X89.321 Y88.184 E2.87792
G1 X89.897 Y88.039 E2.88672
G1 X90.604 Y87.902 E2.89739
G1 X91.48 Y87.843 E2.9104
G1 X116.455 Y87.852 E3.28036
G1 X117.174 Y87.892 E3.29103
G1 X117.883 Y88.012 E3.30168
G1 X118.908 Y88.336 E3.3176
G1 X119.562 Y88.604 E3.32807
G1 X119.651 Y88.646 E3.32953
G1 X140.254 Y88.65 E3.63473
G1 X140.972 Y88.69 E3.64538
G1 X141.682 Y88.81 E3.65605
G1 X142.374 Y89.007 E3.66671
G1 X143.039 Y89.28 E3.67735
G1 X143.671 Y89.625 E3.68802
G1 X144.26 Y90.038 E3.69868
G1 X144.799 Y90.514 E3.70933
G1 X145.283 Y91.047 E3.71999
G1 X145.704 Y91.63 E3.73065
G1 X146.058 Y92.257 E3.74131
G1 X146.34 Y92.918 E3.75196
G1 X146.548 Y93.607 E3.76262
G1 X146.677 Y94.315 E3.77328
G1 X146.728 Y95.125 E3.7853
G1 X146.728 Y99.125 E3.84456
G1 X146.688 Y99.843 E3.85521
G1 X146.569 Y100.553 E3.86587
G1 X146.371 Y101.245 E3.87653
G1 X146.098 Y101.91 E3.88718
G1 X145.753 Y102.542 E3.89785
G1 X145.34 Y103.131 E3.9085
G1 X144.864 Y103.67 E3.91916
G1 X144.332 Y104.154 E3.92981
G1 X143.749 Y104.575 E3.94046
G1 X143.122 Y104.929 E3.95113
G1 X142.461 Y105.212 E3.96178
G1 X141.772 Y105.419 E3.97244
G1 X141.064 Y105.549 E3.9831
G1 X140.253 Y105.6 E3.99514
G1 X124.077 Y105.6 E4.23476
G1 X124.063 Y119.661 E4.44305
G1 X124.022 Y120.38 E4.45372
G1 X123.902 Y121.089 E4.46437
G1 X123.676 Y121.861 E4.47628
G1 X123.526 Y122.275 E4.48281
G1 X123.243 Y122.936 E4.49346
G1 X122.89 Y123.563 E4.50412
G1 X122.6 Y123.978 E4.51162
G1 X122.391 Y124.254 E4.51675
G1 X121.925 Y124.802 E4.5274
G1 X121.402 Y125.296 E4.53806
G1 X120.529 Y125.916 E4.55392
G1 X119.96 Y126.253 E4.56372
G1 X119.321 Y126.585 E4.57438
G1 X118.65 Y126.844 E4.58504
G1 X117.954 Y127.026 E4.59569
G1 X117.242 Y127.131 E4.60636
G1 X116.673 Y127.157 E4.61479
G1 X91.445 Y127.206 E4.9885
G1 X90.726 Y127.167 E4.99917
G1 X90.016 Y127.049 E5.00983
G1 X89.384 Y126.874 E5.01955
G1 X88.727 Y126.655 E5.02981
G1 X88.059 Y126.39 E5.04045
G1 X87.423 Y126.052 E5.05112
G1 X86.829 Y125.646 E5.06178
G1 X86.284 Y125.177 E5.07243
G1 X85.909 Y124.783 E5.08049
G1 X85.457 Y124.268 E5.09064
G1 X85.013 Y123.702 E5.10129
G1 X84.634 Y123.09 E5.11196
G1 X84.326 Y122.44 E5.12261
G1 X84.091 Y121.755 E5.13334
G1 X83.968 Y121.319 E5.14005
G1 X83.812 Y120.617 E5.1507
G1 X83.725 Y119.562 E5.16638
G1 X83.721 Y95.535 E5.5223
G1 X83.761 Y94.817 E5.53296
G1 X83.88 Y94.107 E5.54362
G1 X84.057 Y93.475 E5.55334
G1 X84.266 Y92.852 E5.56308
G1 X84.533 Y92.183 E5.57375
G1 X84.871 Y91.549 E5.58439
G1 X85.279 Y90.956 E5.59505
G1 X85.749 Y90.411 E5.60571
G1 X86.07 Y90.102 E5.61231
M204 S625
M205 X6 Y6
G0 F4285.7 X86.304 Y90.362
M204 S500
M205 X5 Y5
G1 F1200 X86.801 Y89.914 E5.62222
G1 X87.347 Y89.475 E5.6326
G1 X87.939 Y89.103 E5.64296
G1 X88.569 Y88.8 E5.65332
G1 X89.407 Y88.523 E5.66639
G1 X89.983 Y88.378 E5.67519
G1 X90.67 Y88.247 E5.68555
G1 X91.48 Y88.193 E5.69757
G1 X116.455 Y88.202 E6.06754
G1 X117.154 Y88.242 E6.07791
G1 X117.843 Y88.362 E6.08827
G1 X118.776 Y88.659 E6.10277
G1 X119.43 Y88.927 E6.11324
G1 X119.575 Y88.996 E6.11562
G1 X140.254 Y89 E6.42195
G1 X140.953 Y89.04 E6.43232
G1 X141.642 Y89.16 E6.44268
G1 X142.313 Y89.357 E6.45304
G1 X142.958 Y89.63 E6.46341
G1 X143.567 Y89.974 E6.47377
G1 X144.133 Y90.385 E6.48413
G1 X144.648 Y90.859 E6.4945
G1 X145.106 Y91.388 E6.50487
G1 X145.5 Y91.966 E6.51523
G1 X145.827 Y92.585 E6.5256
G1 X146.08 Y93.237 E6.53596
G1 X146.257 Y93.914 E6.54633
G1 X146.356 Y94.607 E6.5567
G1 X146.378 Y95.125 E6.56438
G1 X146.378 Y99.125 E6.62363
G1 X146.338 Y99.824 E6.634
G1 X146.219 Y100.513 E6.64436
G1 X146.021 Y101.184 E6.65472
G1 X145.749 Y101.829 E6.66509
G1 X145.405 Y102.438 E6.67545
G1 X144.993 Y103.004 E6.68582
G1 X144.52 Y103.519 E6.69618
G1 X143.991 Y103.977 E6.70655
G1 X143.413 Y104.372 E6.71692
G1 X142.794 Y104.698 E6.72728
G1 X142.142 Y104.952 E6.73764
G1 X141.465 Y105.129 E6.74801
G1 X140.772 Y105.228 E6.75838
G1 X140.253 Y105.25 E6.76607
G1 X123.727 Y105.25 E7.01088
G1 X123.713 Y119.661 E7.22435
G1 X123.672 Y120.359 E7.23471
G1 X123.552 Y121.049 E7.24509
G1 X123.347 Y121.741 E7.25578
G1 X123.197 Y122.155 E7.2623
G1 X122.921 Y122.799 E7.27268
G1 X122.574 Y123.406 E7.28304
G1 X122.321 Y123.767 E7.28957
G1 X122.112 Y124.043 E7.2947
G1 X121.658 Y124.575 E7.30506
G1 X121.147 Y125.053 E7.31542
G1 X120.35 Y125.615 E7.32987
G1 X119.781 Y125.952 E7.33966
G1 X119.16 Y126.274 E7.35003
G1 X118.506 Y126.522 E7.36039
G1 X117.828 Y126.695 E7.37075
G1 X117.134 Y126.789 E7.38113
G1 X116.672 Y126.807 E7.38797
G1 X91.444 Y126.856 E7.76169
G1 X90.745 Y126.817 E7.77206
G1 X90.056 Y126.699 E7.78241
G1 X89.495 Y126.542 E7.79104
G1 X88.838 Y126.323 E7.8013
G1 X88.188 Y126.064 E7.81166
G1 X87.572 Y125.733 E7.82202
G1 X86.997 Y125.333 E7.8324
G1 X86.472 Y124.871 E7.84276
G1 X86.172 Y124.552 E7.84925
G1 X85.72 Y124.037 E7.8594
G1 X85.289 Y123.486 E7.86976
G1 X84.924 Y122.889 E7.88012
G1 X84.629 Y122.254 E7.8905
G1 X84.428 Y121.66 E7.89979
G1 X84.305 Y121.224 E7.9065
G1 X84.154 Y120.541 E7.91686
G1 X84.075 Y119.562 E7.93141
G1 X84.071 Y95.535 E8.28733
G1 X84.111 Y94.836 E8.2977
G1 X84.23 Y94.147 E8.30806
G1 X84.389 Y93.586 E8.31669
G1 X84.598 Y92.963 E8.32643
G1 X84.858 Y92.313 E8.3368
G1 X85.191 Y91.698 E8.34716
G1 X85.591 Y91.124 E8.35752
G1 X86.304 Y90.362 E8.37298
M204 S625
M205 X6 Y6
G0 F4285.7 X86.538 Y90.621
M204 S500
M205 X5 Y5
G1 F1200 X87.035 Y90.173 E8.38289
G1 X87.566 Y89.749 E8.39296
G1 X88.143 Y89.39 E8.40302
G1 X88.758 Y89.101 E8.41309
G1 X89.492 Y88.863 E8.42452
G1 X90.068 Y88.718 E8.43332
G1 X90.736 Y88.591 E8.44339
G1 X91.48 Y88.543 E8.45444
G1 X116.455 Y88.552 E8.8244
G1 X117.133 Y88.592 E8.83446
G1 X117.802 Y88.712 E8.84453
G1 X118.643 Y88.983 E8.85762
G1 X119.297 Y89.251 E8.86809
G1 X119.495 Y89.346 E8.87134
G1 X140.254 Y89.35 E9.17885
G1 X140.932 Y89.39 E9.18891
G1 X141.601 Y89.51 E9.19898
G1 X142.251 Y89.707 E9.20904
G1 X142.874 Y89.979 E9.21911
G1 X143.46 Y90.322 E9.22917
G1 X144.002 Y90.732 E9.23923
G1 X144.492 Y91.203 E9.2493
G1 X144.923 Y91.728 E9.25936
G1 X145.29 Y92.3 E9.26943
G1 X145.587 Y92.911 E9.2795
G1 X145.81 Y93.553 E9.28956
G1 X145.956 Y94.216 E9.29962
G1 X146.028 Y95.125 E9.31313
G1 X146.028 Y99.125 E9.37238
G1 X145.988 Y99.803 E9.38244
G1 X145.869 Y100.472 E9.39251
G1 X145.672 Y101.122 E9.40257
G1 X145.4 Y101.745 E9.41264
G1 X145.056 Y102.331 E9.4227
G1 X144.646 Y102.873 E9.43277
G1 X144.176 Y103.363 E9.44283
G1 X143.651 Y103.794 E9.45289
G1 X143.079 Y104.161 E9.46296
G1 X142.468 Y104.458 E9.47302
G1 X141.826 Y104.682 E9.48309
G1 X141.163 Y104.828 E9.49315
G1 X140.253 Y104.9 E9.50667
G1 X123.377 Y104.9 E9.75666
G1 X123.363 Y119.661 E9.97532
G1 X123.322 Y120.339 E9.98538
G1 X123.202 Y121.008 E9.99545
G1 X123.018 Y121.622 E10.00495
G1 X122.868 Y122.036 E10.01147
G1 X122.599 Y122.66 E10.02154
G1 X122.259 Y123.248 E10.0316
G1 X122.042 Y123.555 E10.03717
G1 X121.833 Y123.831 E10.04229
G1 X121.392 Y124.348 E10.05236
G1 X120.893 Y124.809 E10.06242
G1 X120.172 Y125.314 E10.07546
G1 X119.603 Y125.651 E10.08526
G1 X118.999 Y125.962 E10.09532
G1 X118.363 Y126.2 E10.10538
G1 X117.703 Y126.362 E10.11545
G1 X117.029 Y126.445 E10.12551
G1 X116.671 Y126.457 E10.13082
G1 X91.443 Y126.506 E10.50453
G1 X90.765 Y126.467 E10.51459
G1 X90.096 Y126.349 E10.52465
G1 X89.606 Y126.21 E10.53219
G1 X88.949 Y125.991 E10.54245
G1 X88.318 Y125.738 E10.55252
G1 X87.721 Y125.414 E10.56259
G1 X87.167 Y125.021 E10.57265
G1 X86.435 Y124.321 E10.58765
G1 X85.983 Y123.806 E10.5978
G1 X85.565 Y123.27 E10.60787
G1 X85.214 Y122.689 E10.61793
G1 X84.933 Y122.07 E10.628
G1 X84.765 Y121.565 E10.63588
G1 X84.642 Y121.129 E10.64259
G1 X84.496 Y120.465 E10.65266
G1 X84.425 Y119.562 E10.66608
G1 X84.421 Y95.535 E11.022
G1 X84.461 Y94.857 E11.03206
G1 X84.58 Y94.188 E11.04212
G1 X84.721 Y93.697 E11.04969
G1 X84.93 Y93.074 E11.05943
G1 X85.183 Y92.444 E11.06948
G1 X85.509 Y91.848 E11.07955
G1 X85.903 Y91.294 E11.08962
G1 X86.538 Y90.621 E11.10332
M204 S625
M205 X6 Y6
G0 F4285.7 X86.773 Y90.881
M204 S500
M205 X5 Y5
G1 F1200 X87.27 Y90.433 E11.11323
G1 X87.785 Y90.023 E11.12299
G1 X88.346 Y89.678 E11.13274
G1 X88.944 Y89.404 E11.14249
G1 X89.578 Y89.202 E11.15234
G1 X90.154 Y89.057 E11.16114
G1 X90.801 Y88.935 E11.17089
G1 X91.48 Y88.893 E11.18097
G1 X116.455 Y88.902 E11.55093
G1 X117.112 Y88.942 E11.56068
G1 X117.76 Y89.062 E11.57045
G1 X118.51 Y89.307 E11.58213
G1 X119.164 Y89.575 E11.5926
G1 X119.416 Y89.696 E11.59675
G1 X140.254 Y89.7 E11.90543
G1 X140.911 Y89.74 E11.91518
G1 X141.559 Y89.859 E11.92494
G1 X142.187 Y90.056 E11.93469
G1 X142.787 Y90.328 E11.94444
G1 X143.349 Y90.67 E11.95419
G1 X143.866 Y91.078 E11.96395
G1 X144.33 Y91.546 E11.97371
G1 X144.734 Y92.066 E11.98346
G1 X145.071 Y92.632 E11.99322
G1 X145.338 Y93.234 E12.00298
G1 X145.529 Y93.864 E12.01273
G1 X145.643 Y94.512 E12.02247
G1 X145.678 Y95.125 E12.03157
G1 X145.678 Y99.125 E12.09082
G1 X145.638 Y99.782 E12.10057
G1 X145.519 Y100.43 E12.11033
G1 X145.322 Y101.058 E12.12008
G1 X145.05 Y101.658 E12.12984
G1 X144.708 Y102.221 E12.1396
G1 X144.3 Y102.738 E12.14935
G1 X143.833 Y103.201 E12.1591
G1 X143.312 Y103.605 E12.16886
G1 X142.747 Y103.943 E12.17862
G1 X142.145 Y104.209 E12.18836
G1 X141.515 Y104.401 E12.19812
G1 X140.867 Y104.515 E12.20787
G1 X140.253 Y104.55 E12.21698
G1 X123.028 Y104.55 E12.47214
G1 X123.013 Y119.66 E12.69597
G1 X122.972 Y120.318 E12.70573
G1 X122.852 Y120.965 E12.71548
G1 X122.689 Y121.503 E12.72381
G1 X122.539 Y121.917 E12.73033
G1 X122.277 Y122.521 E12.74008
G1 X121.763 Y123.344 E12.75446
G1 X121.554 Y123.62 E12.75958
G1 X121.125 Y124.12 E12.76934
G1 X120.639 Y124.564 E12.7791
G1 X119.994 Y125.013 E12.79074
G1 X119.425 Y125.35 E12.80053
G1 X118.839 Y125.65 E12.81029
G1 X118.221 Y125.878 E12.82004
G1 X117.58 Y126.028 E12.82979
G1 X116.671 Y126.107 E12.84331
G1 X91.443 Y126.156 E13.21702
G1 X90.785 Y126.117 E13.22679
G1 X90.137 Y125.999 E13.23654
G1 X89.716 Y125.878 E13.24303
G1 X89.059 Y125.659 E13.25329
G1 X88.449 Y125.413 E13.26303
G1 X87.872 Y125.095 E13.27279
G1 X87.338 Y124.709 E13.28255
G1 X86.698 Y124.091 E13.29573
G1 X86.246 Y123.576 E13.30588
G1 X85.842 Y123.055 E13.31565
G1 X85.505 Y122.49 E13.32539
G1 X85.238 Y121.888 E13.33515
G1 X85.102 Y121.47 E13.34166
G1 X84.979 Y121.034 E13.34837
G1 X84.839 Y120.391 E13.35812
G1 X84.775 Y119.562 E13.37044
G1 X84.771 Y95.535 E13.72636
G1 X84.811 Y94.878 E13.73611
G1 X84.93 Y94.23 E13.74587
G1 X85.053 Y93.809 E13.75236
G1 X85.262 Y93.186 E13.7621
G1 X85.509 Y92.575 E13.77186
G1 X85.828 Y91.999 E13.78161
G1 X86.214 Y91.466 E13.79136
G1 X86.773 Y90.881 E13.80335
M204 S625
M205 X6 Y6
G0 F4285.7 X87.007 Y91.141
M204 S500
M205 X5 Y5
G1 F1200 X87.504 Y90.693 E13.81326
G1 X88.003 Y90.298 E13.82269
G1 X88.547 Y89.967 E13.83212
G1 X89.129 Y89.708 E13.84156
G1 X89.663 Y89.542 E13.84984
G1 X90.239 Y89.397 E13.85864
G1 X90.865 Y89.28 E13.86807
G1 X91.48 Y89.243 E13.8772
G1 X116.455 Y89.252 E14.24716
G1 X117.09 Y89.292 E14.25659
G1 X117.716 Y89.412 E14.26603
G1 X118.377 Y89.631 E14.27634
G1 X119.031 Y89.899 E14.28681
G1 X119.335 Y90.046 E14.29182
G1 X140.254 Y90.05 E14.6017
G1 X140.889 Y90.09 E14.61112
G1 X141.515 Y90.209 E14.62056
G1 X142.121 Y90.406 E14.63
G1 X142.697 Y90.677 E14.63943
G1 X143.235 Y91.018 E14.64886
G1 X143.726 Y91.424 E14.6583
G1 X144.162 Y91.888 E14.66773
G1 X144.536 Y92.403 E14.67716
G1 X144.844 Y92.961 E14.6866
G1 X145.078 Y93.553 E14.69603
G1 X145.237 Y94.17 E14.70547
G1 X145.318 Y94.802 E14.71491
G1 X145.328 Y95.125 E14.7197
G1 X145.328 Y99.125 E14.77895
G1 X145.288 Y99.761 E14.78839
G1 X145.169 Y100.386 E14.79782
G1 X144.972 Y100.992 E14.80725
G1 X144.701 Y101.568 E14.81668
G1 X144.36 Y102.106 E14.82612
G1 X143.954 Y102.597 E14.83556
G1 X143.49 Y103.033 E14.84499
G1 X142.975 Y103.408 E14.85443
G1 X142.418 Y103.715 E14.86385
G1 X141.826 Y103.95 E14.87328
G1 X141.209 Y104.109 E14.88272
G1 X140.577 Y104.19 E14.89216
G1 X140.253 Y104.2 E14.89696
G1 X122.678 Y104.2 E15.15731
G1 X122.663 Y119.66 E15.38632
G1 X122.622 Y120.296 E15.39576
G1 X122.503 Y120.921 E15.40519
G1 X122.359 Y121.384 E15.41237
G1 X122.209 Y121.798 E15.41889
G1 X121.955 Y122.382 E15.42832
G1 X121.484 Y123.133 E15.44146
G1 X121.275 Y123.409 E15.44658
G1 X120.859 Y123.891 E15.45602
G1 X120.387 Y124.318 E15.46544
G1 X119.815 Y124.712 E15.47573
G1 X119.246 Y125.049 E15.48553
G1 X118.679 Y125.338 E15.49496
G1 X118.08 Y125.554 E15.50439
