;START_OF_HEADER
;HEADER_VERSION:0.1
;FLAVOR:Griffin
;GENERATOR.NAME:Cura_SteamEngine
;GENERATOR.VERSION:2.7.0
;GENERATOR.BUILD_DATE:2017-08-30
;TARGET_MACHINE.NAME:Ultimaker 3
;EXTRUDER_TRAIN.0.INITIAL_TEMPERATURE:210
;EXTRUDER_TRAIN.0.MATERIAL.VOLUME_USED:14959
;EXTRUDER_TRAIN.0.MATERIAL.GUID:506c9f0d-e3aa-4bd4-b2d2-23e2425b1aa9
;EXTRUDER_TRAIN.0.NOZZLE.DIAMETER:0.4
;EXTRUDER_TRAIN.0.NOZZLE.NAME:AA 0.4
;BUILD_PLATE.INITIAL_TEMPERATURE:60
;PRINT.TIME:7273
;PRINT.SIZE.MIN.X:9
;PRINT.SIZE.MIN.Y:6
;PRINT.SIZE.MIN.Z:0.27
;PRINT.SIZE.MAX.X:167.769
;PRINT.SIZE.MAX.Y:152.201
;PRINT.SIZE.MAX.Z:14.27
;END_OF_HEADER
;Generated with Cura_SteamEngine 2.7.0

T0
G92 E0

M109 S210
G0 F15000 X9 Y6 Z2
G280
G1 F1500 E-6.5
;LAYER_COUNT:71
;LAYER:0
M107
M204 S625
M205 X6 Y6
G0 F4285.7 X68.328 Y78.058 Z0.27
M204 S500
M205 X5 Y5
;TYPE:SKIRT
G1 F1500 E0
G1 F1200 X68.897 Y77.614 E0.01069
G1 X69.503 Y77.192 E0.02163
G1 X70.152 Y76.838 E0.03258
G1 X70.834 Y76.556 E0.04351
G1 X71.443 Y76.373 E0.05293
G1 X72.108 Y76.207 E0.06309
G1 X72.833 Y76.067 E0.07402
G1 X73.761 Y76.004 E0.0878
G1 X159.178 Y76.001 E1.35311
G1 X159.915 Y76.041 E1.36405
G1 X160.572 Y76.145 E1.3739
G1 X161.272 Y76.291 E1.38449
G1 X161.985 Y76.48 E1.39542
G1 X162.675 Y76.746 E1.40637
G1 X163.331 Y77.085 E1.41731
G1 X163.879 Y77.443 E1.42701
G1 X164.469 Y77.87 E1.4378
G1 X165.044 Y78.335 E1.44875
G1 X165.564 Y78.859 E1.45969
G1 X166 Y79.402 E1.47
G1 X166.289 Y79.802 E1.47731
G1 X166.689 Y80.423 E1.48825
G1 X167.019 Y81.084 E1.4992
G1 X167.319 Y81.921 E1.51237
G1 X167.479 Y82.48 E1.52098
G1 X167.643 Y83.2 E1.53192
G1 X167.729 Y83.934 E1.54287
G1 X167.742 Y84.355 E1.54911
G1 X167.769 Y143.607 E2.42683
G1 X167.729 Y144.344 E2.43776
G1 X167.61 Y145.073 E2.4487
G1 X167.478 Y145.583 E2.4565
G1 X167.195 Y146.52 E2.471
G1 X166.943 Y147.215 E2.48196
G1 X166.618 Y147.878 E2.49289
G1 X166.223 Y148.502 E2.50383
G1 X165.763 Y149.08 E2.51478
G1 X165.154 Y149.685 E2.52749
G1 X164.373 Y150.368 E2.54286
G1 X163.791 Y150.823 E2.5538
G1 X163.164 Y151.213 E2.56474
G1 X162.498 Y151.533 E2.57569
G1 X161.802 Y151.779 E2.58662
G1 X161.27 Y151.912 E2.59475
G1 X160.568 Y152.058 E2.60537
G1 X159.837 Y152.169 E2.61632
G1 X159.178 Y152.201 E2.62609
G1 X73.761 Y152.198 E3.8914
G1 X73.023 Y152.158 E3.90235
G1 X71.994 Y151.965 E3.91786
G1 X71.248 Y151.765 E3.9293
G1 X70.546 Y151.536 E3.94024
G1 X69.872 Y151.231 E3.9512
G1 X69.156 Y150.802 E3.96356
G1 X68.749 Y150.523 E3.97087
G1 X68.163 Y150.073 E3.98182
G1 X67.63 Y149.563 E3.99274
G1 X67.154 Y148.997 E4.0037
G1 X66.564 Y148.065 E4.02004
G1 X66.075 Y147.133 E4.03563
G1 X65.768 Y146.461 E4.04657
G1 X65.535 Y145.76 E4.05752
G1 X65.4 Y145.161 E4.06661
G1 X65.337 Y144.808 E4.07192
G1 X65.247 Y144.075 E4.08286
G1 X65.231 Y143.608 E4.08979
G1 X65.233 Y120.2 E4.43654
G1 X65.273 Y119.463 E4.44747
G1 X65.393 Y118.734 E4.45841
G1 X65.59 Y118.022 E4.46936
G1 X65.863 Y117.336 E4.48029
G1 X66.209 Y116.683 E4.49124
G1 X66.624 Y116.072 E4.50218
G1 X67.102 Y115.509 E4.51312
G1 X67.638 Y115.001 E4.52406
G1 X68.226 Y114.553 E4.53501
G1 X68.859 Y114.172 E4.54596
G1 X69.029 Y114.093 E4.54873
G1 X69.029 Y111.304 E4.59005
G1 X68.542 Y111.046 E4.59821
G1 X67.93 Y110.632 E4.60916
G1 X67.367 Y110.154 E4.6201
G1 X66.859 Y109.618 E4.63104
G1 X66.412 Y109.03 E4.64198
G1 X66.031 Y108.397 E4.65292
G1 X65.72 Y107.727 E4.66386
G1 X65.484 Y107.027 E4.67481
G1 X65.325 Y106.306 E4.68574
G1 X65.244 Y105.571 E4.6967
G1 X65.234 Y105.198 E4.70223
G1 X65.232 Y84.646 E5.00667
G1 X65.311 Y83.607 E5.0221
G1 X65.373 Y83.204 E5.02814
G1 X65.525 Y82.481 E5.03909
G1 X65.754 Y81.779 E5.05003
G1 X66.034 Y81.15 E5.06023
G1 X66.442 Y80.347 E5.07357
G1 X66.812 Y79.708 E5.08451
G1 X67.249 Y79.112 E5.09545
G1 X67.747 Y78.567 E5.10639
G1 X68.328 Y78.058 E5.11783
M204 S625
M205 X6 Y6
G0 F4285.7 X68.544 Y78.334
M204 S500
M205 X5 Y5
G1 F1200 X69.113 Y77.89 E5.12852
G1 X69.704 Y77.48 E5.13918
G1 X70.336 Y77.138 E5.14982
G1 X71.003 Y76.868 E5.16048
G1 X71.528 Y76.713 E5.16859
G1 X72.193 Y76.547 E5.17874
G1 X72.899 Y76.412 E5.18939
G1 X73.761 Y76.354 E5.20219
G1 X159.178 Y76.351 E6.4675
G1 X159.896 Y76.391 E6.47815
G1 X160.5 Y76.487 E6.48721
G1 X161.2 Y76.633 E6.4978
G1 X161.895 Y76.819 E6.50846
G1 X162.565 Y77.081 E6.51912
G1 X163.202 Y77.415 E6.52977
G1 X163.674 Y77.727 E6.53815
G1 X164.264 Y78.154 E6.54894
G1 X164.823 Y78.607 E6.5596
G1 X165.327 Y79.12 E6.57025
G1 X165.716 Y79.607 E6.57949
G1 X166.005 Y80.007 E6.5868
G1 X166.394 Y80.613 E6.59746
G1 X166.712 Y81.258 E6.60812
G1 X166.982 Y82.017 E6.62005
G1 X167.142 Y82.576 E6.62866
G1 X167.301 Y83.278 E6.63933
G1 X167.382 Y83.993 E6.64998
G1 X167.392 Y84.355 E6.65535
G1 X167.419 Y143.607 E7.53307
G1 X167.379 Y144.325 E7.54372
G1 X167.26 Y145.035 E7.55438
G1 X167.142 Y145.482 E7.56123
G1 X166.859 Y146.419 E7.57573
G1 X166.614 Y147.095 E7.58638
G1 X166.294 Y147.74 E7.59705
G1 X165.905 Y148.345 E7.6077
G1 X165.451 Y148.903 E7.61836
G1 X164.923 Y149.421 E7.62932
G1 X164.142 Y150.104 E7.64469
G1 X163.575 Y150.547 E7.65534
G1 X162.963 Y150.924 E7.66599
G1 X162.312 Y151.231 E7.67665
G1 X161.631 Y151.464 E7.68732
G1 X161.198 Y151.569 E7.69392
G1 X160.496 Y151.715 E7.70454
G1 X159.785 Y151.822 E7.71519
G1 X159.178 Y151.851 E7.72419
G1 X73.761 Y151.848 E8.9895
G1 X73.042 Y151.808 E9.00017
G1 X72.084 Y151.627 E9.01461
G1 X71.338 Y151.427 E9.02605
G1 X70.655 Y151.203 E9.0367
G1 X70 Y150.903 E9.04737
G1 X69.354 Y150.514 E9.05854
G1 X68.947 Y150.235 E9.06585
G1 X68.377 Y149.796 E9.07651
G1 X67.859 Y149.296 E9.08717
G1 X67.4 Y148.742 E9.09783
G1 X66.874 Y147.902 E9.11251
G1 X66.385 Y146.97 E9.1281
G1 X66.087 Y146.316 E9.13875
G1 X65.863 Y145.632 E9.14941
G1 X65.745 Y145.1 E9.15748
G1 X65.682 Y144.747 E9.16279
G1 X65.595 Y144.032 E9.17346
G1 X65.581 Y143.608 E9.17975
G1 X65.583 Y120.2 E9.5265
G1 X65.623 Y119.482 E9.53715
G1 X65.743 Y118.773 E9.5478
G1 X65.94 Y118.081 E9.55846
G1 X66.213 Y117.415 E9.56912
G1 X66.558 Y116.784 E9.57978
G1 X66.971 Y116.195 E9.59043
G1 X67.447 Y115.655 E9.6011
G1 X67.98 Y115.172 E9.61175
G1 X68.563 Y114.75 E9.62241
G1 X69.189 Y114.396 E9.63306
G1 X69.379 Y114.315 E9.63612
G1 X69.379 Y111.085 E9.68397
G1 X69.274 Y111.042 E9.68565
G1 X68.642 Y110.697 E9.69632
G1 X68.053 Y110.284 E9.70697
G1 X67.514 Y109.808 E9.71763
G1 X67.03 Y109.276 E9.72828
G1 X66.609 Y108.693 E9.73893
G1 X66.255 Y108.066 E9.7496
G1 X65.972 Y107.405 E9.76025
G1 X65.765 Y106.716 E9.77091
G1 X65.635 Y106.008 E9.78157
G1 X65.584 Y105.198 E9.79359
G1 X65.582 Y84.646 E10.09804
G1 X65.657 Y83.66 E10.11268
G1 X65.719 Y83.257 E10.11872
G1 X65.868 Y82.554 E10.12937
G1 X66.094 Y81.87 E10.14004
G1 X66.346 Y81.309 E10.14915
G1 X66.754 Y80.506 E10.16249
G1 X67.115 Y79.884 E10.17315
G1 X67.543 Y79.305 E10.18381
G1 X68.033 Y78.778 E10.19447
G1 X68.544 Y78.334 E10.2045
M204 S625
M205 X6 Y6
G0 F4285.7 X68.759 Y78.61
M204 S500
M205 X5 Y5
G1 F1200 X69.328 Y78.166 E10.21519
G1 X69.903 Y77.768 E10.22555
G1 X70.52 Y77.438 E10.23592
G1 X71.171 Y77.18 E10.24629
G1 X71.613 Y77.052 E10.2531
G1 X72.278 Y76.886 E10.26326
G1 X72.965 Y76.756 E10.27362
G1 X73.761 Y76.704 E10.28543
G1 X159.178 Y76.701 E11.55074
G1 X159.876 Y76.741 E11.5611
G1 X160.429 Y76.83 E11.56939
G1 X161.129 Y76.976 E11.57999
G1 X161.804 Y77.158 E11.59034
G1 X162.455 Y77.415 E11.60071
G1 X163.072 Y77.746 E11.61108
G1 X163.469 Y78.01 E11.61815
G1 X164.059 Y78.437 E11.62893
G1 X164.602 Y78.879 E11.63931
G1 X165.09 Y79.38 E11.64967
G1 X165.433 Y79.812 E11.65784
G1 X165.722 Y80.212 E11.66515
G1 X166.098 Y80.802 E11.67551
G1 X166.405 Y81.43 E11.68587
G1 X166.646 Y82.114 E11.69661
G1 X166.806 Y82.673 E11.70522
G1 X166.959 Y83.355 E11.71558
G1 X167.042 Y84.355 E11.73044
G1 X167.069 Y143.607 E12.60816
G1 X167.029 Y144.306 E12.61853
G1 X166.91 Y144.995 E12.62889
G1 X166.807 Y145.381 E12.63481
G1 X166.524 Y146.318 E12.6493
G1 X166.284 Y146.975 E12.65967
G1 X165.971 Y147.601 E12.67003
G1 X165.588 Y148.186 E12.68039
G1 X165.14 Y148.724 E12.69076
G1 X164.693 Y149.158 E12.69999
G1 X163.912 Y149.841 E12.71536
G1 X163.36 Y150.27 E12.72572
G1 X162.762 Y150.634 E12.73609
G1 X162.127 Y150.928 E12.74645
G1 X161.127 Y151.227 E12.76191
G1 X160.425 Y151.373 E12.77254
G1 X159.733 Y151.476 E12.7829
G1 X159.178 Y151.501 E12.79113
G1 X73.761 Y151.498 E14.05644
G1 X73.062 Y151.458 E14.06681
G1 X72.175 Y151.289 E14.08018
G1 X71.429 Y151.089 E14.09163
G1 X70.765 Y150.87 E14.10198
G1 X70.13 Y150.576 E14.11235
G1 X69.552 Y150.225 E14.12237
G1 X69.145 Y149.946 E14.12968
G1 X68.591 Y149.518 E14.14005
G1 X68.09 Y149.03 E14.15041
G1 X67.648 Y148.487 E14.16078
G1 X67.184 Y147.74 E14.1738
G1 X66.695 Y146.808 E14.1894
G1 X66.406 Y146.171 E14.19976
G1 X66.191 Y145.505 E14.21012
G1 X66.089 Y145.038 E14.2172
G1 X66.026 Y144.685 E14.22252
G1 X65.943 Y143.99 E14.23288
G1 X65.931 Y143.608 E14.23855
G1 X65.933 Y120.2 E14.5853
G1 X65.973 Y119.502 E14.59565
G1 X66.092 Y118.812 E14.60603
G1 X66.29 Y118.141 E14.61639
G1 X66.562 Y117.497 E14.62674
G1 X66.907 Y116.888 E14.63711
G1 X67.318 Y116.322 E14.64747
G1 X67.792 Y115.806 E14.65785
G1 X68.321 Y115.348 E14.66822
G1 X68.898 Y114.954 E14.67857
G1 X69.517 Y114.628 E14.68893
G1 X69.729 Y114.546 E14.6923
G1 X69.729 Y110.851 E14.74703
G1 X69.355 Y110.693 E14.75305
G1 X68.746 Y110.349 E14.76341
G1 X68.18 Y109.937 E14.77378
G1 X67.665 Y109.464 E14.78414
G1 X67.207 Y108.935 E14.7945
G1 X66.812 Y108.357 E14.80487
G1 X66.486 Y107.738 E14.81524
G1 X66.232 Y107.086 E14.8256
G1 X66.055 Y106.409 E14.83597
G1 X65.956 Y105.716 E14.84634
G1 X65.934 Y105.198 E14.85402
G1 X65.932 Y84.646 E15.15846
G1 X66.003 Y83.714 E15.17231
G1 X66.065 Y83.311 E15.17835
G1 X66.211 Y82.626 E15.18872
G1 X66.434 Y81.963 E15.19908
G1 X66.658 Y81.468 E15.20713
G1 X67.066 Y80.665 E15.22048
G1 X67.418 Y80.06 E15.23084
G1 X67.837 Y79.499 E15.24122
G1 X68.317 Y78.99 E15.25158
G1 X68.759 Y78.61 E15.26021
M204 S625
M205 X6 Y6
G0 F4285.7 X68.974 Y78.886
M204 S500
M205 X5 Y5
G1 F1200 X69.543 Y78.442 E15.27091
G1 X70.103 Y78.056 E15.28098
G1 X70.703 Y77.739 E15.29103
G1 X71.337 Y77.494 E15.3011
G1 X71.697 Y77.392 E15.30664
G1 X72.362 Y77.226 E15.3168
G1 X73.03 Y77.1 E15.32687
G1 X73.761 Y77.054 E15.33772
G1 X159.178 Y77.051 E16.60303
G1 X159.856 Y77.091 E16.61309
G1 X160.357 Y77.173 E16.62061
G1 X161.057 Y77.319 E16.6312
G1 X161.713 Y77.496 E16.64126
G1 X162.343 Y77.75 E16.65133
G1 X162.94 Y78.075 E16.6614
G1 X163.264 Y78.294 E16.66719
G1 X163.854 Y78.721 E16.67798
G1 X164.38 Y79.151 E16.68804
G1 X164.852 Y79.64 E16.69811
G1 X165.149 Y80.017 E16.70522
G1 X165.438 Y80.417 E16.71253
G1 X165.803 Y80.99 E16.72259
G1 X166.098 Y81.602 E16.73266
G1 X166.309 Y82.21 E16.74219
G1 X166.469 Y82.769 E16.7508
G1 X166.617 Y83.432 E16.76087
G1 X166.692 Y84.355 E16.77458
G1 X166.719 Y143.607 E17.6523
G1 X166.679 Y144.286 E17.66238
G1 X166.472 Y145.28 E17.67742
G1 X166.189 Y146.217 E17.69192
G1 X165.955 Y146.854 E17.70197
G1 X165.647 Y147.46 E17.71204
G1 X165.271 Y148.026 E17.72211
G1 X164.83 Y148.543 E17.73217
G1 X164.463 Y148.894 E17.73969
G1 X163.682 Y149.577 E17.75506
G1 X163.145 Y149.994 E17.76514
G1 X162.563 Y150.344 E17.7752
G1 X161.944 Y150.624 E17.78526
G1 X161.056 Y150.884 E17.79897
G1 X160.354 Y151.03 E17.80959
G1 X159.682 Y151.129 E17.81965
G1 X159.178 Y151.151 E17.82712
G1 X73.761 Y151.148 E19.09243
G1 X73.083 Y151.108 E19.10249
G1 X72.266 Y150.951 E19.11482
G1 X71.52 Y150.751 E19.12626
G1 X70.875 Y150.537 E19.13632
G1 X70.26 Y150.248 E19.14639
G1 X69.75 Y149.936 E19.15525
G1 X69.343 Y149.657 E19.16256
G1 X68.806 Y149.241 E19.17262
G1 X68.322 Y148.764 E19.18268
G1 X67.897 Y148.234 E19.19275
G1 X67.494 Y147.577 E19.20417
G1 X67.005 Y146.645 E19.21976
G1 X66.725 Y146.026 E19.22982
G1 X66.52 Y145.378 E19.23989
G1 X66.434 Y144.977 E19.24596
G1 X66.371 Y144.624 E19.25128
G1 X66.291 Y143.949 E19.26134
G1 X66.281 Y143.609 E19.26638
G1 X66.283 Y120.201 E19.61313
G1 X66.323 Y119.522 E19.62321
G1 X66.442 Y118.853 E19.63327
G1 X66.64 Y118.203 E19.64334
G1 X66.912 Y117.581 E19.6534
G1 X67.255 Y116.994 E19.66347
G1 X67.665 Y116.453 E19.67352
G1 X68.135 Y115.963 E19.68358
G1 X68.66 Y115.531 E19.69365
G1 X69.232 Y115.165 E19.70371
G1 X69.843 Y114.868 E19.71377
G1 X70.079 Y114.786 E19.71748
G1 X70.079 Y110.621 E19.77917
G1 X70.062 Y110.616 E19.77944
G1 X69.439 Y110.344 E19.78951
G1 X68.853 Y110 E19.79957
G1 X68.311 Y109.59 E19.80964
G1 X67.821 Y109.12 E19.8197
G1 X67.39 Y108.595 E19.82976
G1 X67.023 Y108.023 E19.83983
G1 X66.726 Y107.412 E19.84989
G1 X66.502 Y106.77 E19.85996
G1 X66.356 Y106.107 E19.87002
G1 X66.284 Y105.198 E19.88353
G1 X66.282 Y84.646 E20.18797
G1 X66.349 Y83.767 E20.20103
G1 X66.411 Y83.364 E20.20707
G1 X66.554 Y82.7 E20.21713
G1 X66.773 Y82.057 E20.22719
G1 X66.97 Y81.626 E20.23421
G1 X67.378 Y80.823 E20.24755
G1 X67.721 Y80.236 E20.25762
G1 X68.131 Y79.694 E20.26769
G1 X68.601 Y79.204 E20.27775
G1 X68.974 Y78.886 E20.28501
M204 S625
M205 X6 Y6
G0 F4285.7 X69.19 Y79.162
M204 S500
M205 X5 Y5
G1 F1200 X69.759 Y78.718 E20.2957
G1 X70.301 Y78.345 E20.30545
G1 X70.885 Y78.041 E20.3152
G1 X71.782 Y77.732 E20.32925
G1 X72.447 Y77.566 E20.33941
G1 X73.094 Y77.445 E20.34916
G1 X73.761 Y77.404 E20.35906
G1 X159.178 Y77.401 E21.62437
G1 X159.835 Y77.441 E21.63412
G1 X160.286 Y77.515 E21.64089
G1 X160.986 Y77.661 E21.65148
G1 X161.621 Y77.835 E21.66123
G1 X162.231 Y78.084 E21.67099
G1 X163.059 Y78.577 E21.68527
G1 X163.649 Y79.004 E21.69606
G1 X164.158 Y79.422 E21.70581
G1 X164.612 Y79.898 E21.71556
G1 X164.865 Y80.222 E21.72165
G1 X165.154 Y80.622 E21.72896
G1 X165.507 Y81.178 E21.73871
G1 X165.789 Y81.773 E21.74847
G1 X165.973 Y82.306 E21.75682
G1 X166.133 Y82.865 E21.76543
G1 X166.275 Y83.508 E21.77519
G1 X166.342 Y84.356 E21.78779
G1 X166.369 Y143.608 E22.66551
G1 X166.329 Y144.265 E22.67526
G1 X166.137 Y145.179 E22.68909
G1 X165.854 Y146.116 E22.70359
G1 X165.626 Y146.733 E22.71333
G1 X165.325 Y147.319 E22.72309
G1 X164.954 Y147.863 E22.73285
G1 X164.521 Y148.359 E22.7426
G1 X164.232 Y148.631 E22.74848
G1 X163.451 Y149.314 E22.76385
G1 X162.93 Y149.716 E22.7736
G1 X162.364 Y150.053 E22.78335
G1 X161.762 Y150.318 E22.7931
G1 X160.985 Y150.541 E22.80507
G1 X160.283 Y150.687 E22.81569
G1 X159.631 Y150.782 E22.82545
G1 X159.178 Y150.801 E22.83217
G1 X73.761 Y150.798 E24.09748
G1 X73.104 Y150.758 E24.10723
G1 X72.356 Y150.613 E24.11852
G1 X71.61 Y150.413 E24.12996
G1 X70.986 Y150.204 E24.13971
G1 X70.391 Y149.921 E24.14947
G1 X69.948 Y149.648 E24.15717
G1 X69.541 Y149.369 E24.16448
G1 X69.021 Y148.964 E24.17425
G1 X68.554 Y148.499 E24.18401
G1 X68.147 Y147.982 E24.19376
G1 X67.804 Y147.415 E24.20357
G1 X67.315 Y146.483 E24.21916
G1 X67.045 Y145.882 E24.22892
G1 X66.85 Y145.253 E24.23868
G1 X66.778 Y144.915 E24.2438
G1 X66.715 Y144.562 E24.24911
G1 X66.631 Y143.609 E24.26328
G1 X66.633 Y120.201 E24.61003
G1 X66.673 Y119.543 E24.6198
G1 X66.792 Y118.896 E24.62954
G1 X66.989 Y118.267 E24.63931
G1 X67.261 Y117.667 E24.64906
G1 X67.603 Y117.105 E24.65881
G1 X68.011 Y116.588 E24.66857
G1 X68.479 Y116.124 E24.67833
G1 X68.999 Y115.721 E24.68807
G1 X69.564 Y115.383 E24.69783
G1 X70.166 Y115.116 E24.70758
G1 X70.429 Y115.036 E24.71165
G1 X70.429 Y110.361 E24.78091
G1 X70.126 Y110.266 E24.78561
G1 X69.526 Y109.994 E24.79537
G1 X68.963 Y109.652 E24.80513
G1 X68.446 Y109.244 E24.81488
G1 X67.983 Y108.777 E24.82462
G1 X67.579 Y108.256 E24.83439
G1 X67.241 Y107.691 E24.84414
G1 X66.975 Y107.089 E24.85389
G1 X66.783 Y106.459 E24.86365
G1 X66.669 Y105.811 E24.87339
G1 X66.634 Y105.198 E24.88249
G1 X66.632 Y84.646 E25.18693
G1 X66.695 Y83.82 E25.1992
G1 X66.757 Y83.417 E25.20524
G1 X66.897 Y82.774 E25.21499
G1 X67.113 Y82.152 E25.22475
G1 X67.282 Y81.785 E25.23073
G1 X67.69 Y80.982 E25.24407
G1 X68.024 Y80.414 E25.25383
G1 X68.424 Y79.89 E25.2636
G1 X68.884 Y79.419 E25.27335
G1 X69.19 Y79.162 E25.27927
M204 S625
M205 X6 Y6
G0 F4285.7 X69.405 Y79.438
M204 S500
M205 X5 Y5
G1 F1200 X69.974 Y78.994 E25.28996
G1 X70.5 Y78.634 E25.29941
G1 X71.066 Y78.344 E25.30883
G1 X71.867 Y78.071 E25.32136
G1 X72.532 Y77.905 E25.33152
G1 X73.158 Y77.79 E25.34094
G1 X73.761 Y77.754 E25.34989
G1 X159.178 Y77.751 E26.6152
G1 X159.813 Y77.791 E26.62463
G1 X160.214 Y77.858 E26.63065
G1 X160.914 Y78.004 E26.64124
